;FLAVOR:Marlin
;TIME:23348
;Filament used: 18.9248m
;Layer height: 0.2
;MINX:88.201
;MINY:31.485
;MINZ:0.2
;MAXX:210.288
;MAXY:202.565
;MAXZ:25
;Generated with Cura_SteamEngine 4.6.1
M140 S50
M105
M190 S50
M104 S200
M105
M109 S200
M82 ;absolute extrusion mode
; Ender 3 Custom Start G-code
G92 E0 ; Reset Extruder
G28 ; Home all axes
G1 Z2.0 F3000 ; Move Z Axis up little to prevent scratching of Heat Bed
G1 X0.1 Y20 Z0.3 F5000.0 ; Move to start position
G1 X0.1 Y200.0 Z0.3 F1500.0 E15 ; Draw the first line
G1 X0.4 Y200.0 Z0.3 F5000.0 ; Move to side a little
G1 X0.4 Y20 Z0.3 F1500.0 E30 ; Draw the second line
G92 E0 ; Reset Extruder
G1 Z2.0 F3000 ; Move Z Axis up little to prevent scratching of Heat Bed
G1 X5 Y20 Z0.3 F5000.0 ; Move over to prevent blob squish
G92 E0
G92 E0
G1 F2700 E-5
;LAYER_COUNT:125
;LAYER:0
M107
G0 F6000 X167.34 Y32.296 Z0.2
;TYPE:SKIRT
G1 F2700 E0
G1 F1200 X168.241 Y32.349 E0.03002
G1 X169.135 Y32.481 E0.06008
G1 X170.013 Y32.692 E0.09011
G1 X170.869 Y32.98 E0.12015
G1 X172.016 Y33.507 E0.16213
G1 X172.663 Y33.854 E0.18655
G1 X174.981 Y35.064 E0.27352
G1 X177.267 Y36.176 E0.35807
G1 X179.59 Y37.227 E0.44287
G1 X181.957 Y38.218 E0.52822
G1 X184.319 Y39.126 E0.61239
G1 X186.693 Y39.965 E0.69613
G1 X189.111 Y40.743 E0.78062
G1 X191.542 Y41.45 E0.86482
G1 X194.042 Y42.101 E0.95075
G1 X196.488 Y42.666 E1.03424
G1 X198.989 Y43.167 E1.11908
G1 X200.499 Y43.426 E1.17003
G1 X201.152 Y43.548 E1.19213
G1 X202.032 Y43.753 E1.22218
G1 X202.89 Y44.035 E1.25222
G1 X203.719 Y44.392 E1.28224
G1 X204.514 Y44.821 E1.31229
G1 X205.268 Y45.318 E1.34232
G1 X205.975 Y45.88 E1.37236
G1 X206.629 Y46.503 E1.4024
G1 X207.226 Y47.181 E1.43245
G1 X207.76 Y47.909 E1.46248
G1 X208.228 Y48.681 E1.49251
G1 X208.626 Y49.492 E1.52255
G1 X208.951 Y50.335 E1.5526
G1 X209.199 Y51.203 E1.58263
G1 X209.37 Y52.09 E1.61267
G1 X209.475 Y53.288 E1.65267
G1 X209.488 Y53.895 E1.67286
G1 X209.488 Y190.829 E6.22731
G1 X209.478 Y191.682 E6.25568
G1 X209.427 Y192.584 E6.28573
G1 X209.296 Y193.478 E6.31578
G1 X209.087 Y194.356 E6.3458
G1 X208.801 Y195.213 E6.37585
G1 X208.44 Y196.041 E6.40589
G1 X208.008 Y196.833 E6.4359
G1 X207.507 Y197.585 E6.46595
G1 X206.941 Y198.289 E6.496
G1 X206.316 Y198.94 E6.52601
G1 X205.635 Y199.534 E6.55607
G1 X204.904 Y200.065 E6.58612
G1 X204.13 Y200.529 E6.61613
G1 X203.317 Y200.923 E6.64618
G1 X202.473 Y201.243 E6.6762
G1 X201.603 Y201.488 E6.70627
G1 X200.716 Y201.654 E6.73628
G1 X199.565 Y201.752 E6.7747
G1 X198.958 Y201.765 E6.79489
G1 X189.75 Y201.764 E7.10115
G1 X187.839 Y201.736 E7.16472
G1 X187.417 Y201.724 E7.17876
G1 X184.909 Y201.721 E7.26218
G1 X184.563 Y201.731 E7.27369
G1 X182.018 Y201.765 E7.35835
G1 X159.849 Y201.764 E8.09569
G1 X159.149 Y201.754 E8.11897
G1 X158.248 Y201.701 E8.14899
G1 X157.354 Y201.569 E8.17905
G1 X156.912 Y201.473 E8.19409
G1 X156.342 Y201.334 E8.21361
G1 X154.553 Y200.869 E8.27509
G1 X152.028 Y200.288 E8.36126
G1 X149.569 Y199.793 E8.44469
G1 X147.048 Y199.365 E8.52974
G1 X144.578 Y199.014 E8.61272
G1 X142.042 Y198.726 E8.69761
G1 X139.494 Y198.51 E8.78266
G1 X136.997 Y198.368 E8.86584
G1 X133.052 Y198.285 E8.99708
G1 X105.762 Y198.284 E9.90475
G1 X105.064 Y198.274 E9.92797
G1 X104.162 Y198.221 E9.95802
G1 X103.269 Y198.089 E9.98805
G1 X102.391 Y197.878 E10.01808
G1 X101.535 Y197.59 E10.04812
G1 X100.708 Y197.228 E10.07815
G1 X99.916 Y196.793 E10.1082
G1 X99.165 Y196.291 E10.13824
G1 X98.462 Y195.724 E10.16828
G1 X97.812 Y195.097 E10.19832
G1 X97.22 Y194.415 E10.22836
G1 X96.69 Y193.684 E10.25839
G1 X96.228 Y192.908 E10.28843
G1 X95.835 Y192.095 E10.31846
G1 X95.517 Y191.25 E10.34849
G1 X95.274 Y190.38 E10.37853
G1 X95.109 Y189.492 E10.40857
G1 X95.014 Y188.351 E10.44666
G1 X95.001 Y187.743 E10.46688
G1 X95.002 Y142.646 E11.96681
G1 X95.012 Y141.949 E11.99
G1 X95.065 Y141.047 E12.02005
G1 X95.197 Y140.154 E12.05008
G1 X95.408 Y139.276 E12.08011
G1 X95.839 Y138.069 E12.12274
G1 X96.208 Y137.215 E12.15368
G1 X96.661 Y136.213 E12.19025
G1 X97.642 Y133.87 E12.27474
G1 X98.566 Y131.483 E12.35987
G1 X99.4 Y129.118 E12.44328
G1 X100.174 Y126.714 E12.52728
G1 X100.897 Y124.234 E12.6132
G1 X101.531 Y121.802 E12.69679
G1 X102.103 Y119.327 E12.78128
G1 X102.611 Y116.808 E12.86675
G1 X103.036 Y114.328 E12.95043
G1 X103.396 Y111.814 E13.0349
G1 X103.683 Y109.3 E13.11906
G1 X103.901 Y106.752 E13.20412
G1 X104.045 Y104.247 E13.28757
G1 X104.119 Y101.678 E13.37305
G1 X104.121 Y99.144 E13.45733
G1 X104.051 Y96.611 E13.54161
G1 X103.909 Y94.082 E13.62586
G1 X103.694 Y91.528 E13.71111
G1 X103.412 Y89.042 E13.79432
G1 X103.05 Y86.477 E13.88048
G1 X102.63 Y84.017 E13.96348
G1 X102.13 Y81.52 E14.04818
G1 X101.562 Y79.04 E14.13281
G1 X100.922 Y76.575 E14.21751
G1 X100.215 Y74.137 E14.30194
G1 X99.437 Y71.711 E14.38668
G1 X98.603 Y69.342 E14.47021
G1 X97.697 Y66.987 E14.55413
G1 X96.699 Y64.594 E14.64037
G1 X95.669 Y62.31 E14.7237
G1 X94.543 Y59.99 E14.80947
G1 X93.384 Y57.766 E14.89289
G1 X92.136 Y55.526 E14.97817
G1 X90.449 Y52.704 E15.08752
G1 X90.021 Y51.908 E15.11758
G1 X89.666 Y51.078 E15.14761
G1 X89.385 Y50.22 E15.17764
G1 X89.182 Y49.34 E15.20768
G1 X89.057 Y48.445 E15.23773
G1 X89.016 Y47.794 E15.25943
G1 X89.001 Y47.155 E15.28069
G1 X89.002 Y43.05 E15.41722
G1 X89.011 Y42.361 E15.44014
G1 X89.063 Y41.459 E15.47019
G1 X89.194 Y40.566 E15.50021
G1 X89.404 Y39.687 E15.53027
G1 X89.69 Y38.831 E15.56028
G1 X90.052 Y38.003 E15.59034
G1 X90.485 Y37.211 E15.62036
G1 X90.986 Y36.46 E15.65039
G1 X91.552 Y35.756 E15.68043
G1 X92.178 Y35.105 E15.71047
G1 X92.86 Y34.512 E15.74053
G1 X93.591 Y33.982 E15.77056
G1 X94.365 Y33.518 E15.80058
G1 X95.178 Y33.125 E15.83061
G1 X96.023 Y32.805 E15.86066
G1 X96.893 Y32.561 E15.89072
G1 X97.78 Y32.395 E15.92073
G1 X98.924 Y32.298 E15.95892
G1 X99.531 Y32.285 E15.97911
G1 X166.494 Y32.285 E18.20631
G1 X166.64 Y32.286 E18.21116
G1 X167.34 Y32.296 E18.23445
G0 F6000 X167.345 Y31.896
G1 F1200 X168.265 Y31.949 E18.2651
G1 X169.176 Y32.082 E18.29572
G1 X170.072 Y32.293 E18.32634
G1 X170.946 Y32.581 E18.35694
G1 X171.792 Y32.944 E18.38756
G1 X172.205 Y33.154 E18.40297
G1 X172.858 Y33.504 E18.42761
G1 X175.162 Y34.707 E18.51406
G1 X177.458 Y35.824 E18.59898
G1 X179.731 Y36.852 E18.68196
G1 X182.13 Y37.856 E18.76845
G1 X184.435 Y38.742 E18.85059
G1 X186.822 Y39.587 E18.93481
G1 X189.23 Y40.361 E19.01893
G1 X191.65 Y41.065 E19.10276
G1 X194.127 Y41.71 E19.18789
G1 X196.585 Y42.278 E19.2718
G1 X199.064 Y42.774 E19.35589
G1 X200.573 Y43.033 E19.40681
G1 X201.226 Y43.155 E19.4289
G1 X202.123 Y43.364 E19.45954
G1 X202.998 Y43.649 E19.49014
G1 X203.845 Y44.009 E19.52076
G1 X204.658 Y44.441 E19.55138
G1 X205.43 Y44.942 E19.58199
G1 X206.156 Y45.509 E19.61262
G1 X206.83 Y46.136 E19.64324
G1 X207.447 Y46.819 E19.67386
G1 X208.003 Y47.553 E19.70448
G1 X208.492 Y48.333 E19.7351
G1 X208.912 Y49.152 E19.76571
G1 X209.26 Y50.005 E19.79636
G1 X209.532 Y50.884 E19.82696
G1 X209.727 Y51.784 E19.85759
G1 X209.843 Y52.698 E19.88823
G1 X209.875 Y53.277 E19.90752
G1 X209.888 Y53.895 E19.92808
G1 X209.888 Y190.829 E24.48252
G1 X209.878 Y191.687 E24.51106
G1 X209.827 Y192.606 E24.54167
G1 X209.696 Y193.518 E24.57232
G1 X209.486 Y194.414 E24.60293
G1 X209.2 Y195.289 E24.63354
G1 X208.839 Y196.136 E24.66417
G1 X208.405 Y196.948 E24.69479
G1 X207.903 Y197.72 E24.72542
G1 X207.335 Y198.445 E24.75605
G1 X206.707 Y199.118 E24.78667
G1 X206.023 Y199.734 E24.81728
G1 X205.288 Y200.288 E24.8479
G1 X204.508 Y200.777 E24.87851
G1 X203.688 Y201.196 E24.90914
G1 X202.835 Y201.542 E24.93976
G1 X201.955 Y201.813 E24.97038
G1 X201.055 Y202.006 E25.001
G1 X200.141 Y202.121 E25.03164
G1 X199.576 Y202.152 E25.05046
G1 X198.958 Y202.165 E25.07102
G1 X189.745 Y202.164 E25.37744
G1 X187.828 Y202.136 E25.44121
G1 X187.406 Y202.124 E25.45525
G1 X184.922 Y202.121 E25.53787
G1 X184.568 Y202.131 E25.54965
G1 X182.018 Y202.165 E25.63447
G1 X159.844 Y202.164 E26.37198
G1 X159.144 Y202.154 E26.39526
G1 X158.224 Y202.101 E26.42591
G1 X157.313 Y201.968 E26.45653
G1 X156.818 Y201.862 E26.47337
G1 X156.242 Y201.721 E26.4931
G1 X154.443 Y201.253 E26.55492
G1 X151.965 Y200.684 E26.63949
G1 X149.488 Y200.185 E26.72353
G1 X147.037 Y199.768 E26.80622
G1 X144.474 Y199.404 E26.89232
G1 X142 Y199.123 E26.97513
G1 X139.473 Y198.909 E27.05948
G1 X136.993 Y198.768 E27.1421
G1 X133.044 Y198.685 E27.27347
G1 X105.756 Y198.684 E28.18108
G1 X105.058 Y198.674 E28.20429
G1 X104.139 Y198.621 E28.23491
G1 X103.228 Y198.488 E28.26553
G1 X102.332 Y198.277 E28.29615
G1 X101.458 Y197.989 E28.32676
G1 X100.611 Y197.626 E28.35741
G1 X99.8 Y197.191 E28.38801
G1 X99.03 Y196.687 E28.41862
G1 X98.306 Y196.118 E28.44925
G1 X97.634 Y195.488 E28.47989
G1 X97.019 Y194.803 E28.51051
G1 X96.466 Y194.067 E28.54112
G1 X95.979 Y193.286 E28.57174
G1 X95.562 Y192.465 E28.60236
G1 X95.217 Y191.611 E28.633
G1 X94.948 Y190.731 E28.6636
G1 X94.756 Y189.83 E28.69424
G1 X94.643 Y188.917 E28.72484
G1 X94.614 Y188.362 E28.74333
G1 X94.601 Y187.743 E28.76392
G1 X94.602 Y142.64 E30.26405
G1 X94.612 Y141.943 E30.28724
G1 X94.665 Y141.024 E30.31785
G1 X94.798 Y140.113 E30.34847
G1 X95.009 Y139.217 E30.37909
G1 X95.297 Y138.342 E30.40973
G1 X95.472 Y137.911 E30.4252
G1 X95.844 Y137.05 E30.4564
G1 X96.287 Y136.072 E30.49211
G1 X97.271 Y133.719 E30.57694
G1 X98.196 Y131.331 E30.66211
G1 X99.014 Y129.011 E30.74393
G1 X99.795 Y126.584 E30.82873
G1 X100.508 Y124.14 E30.91341
G1 X101.14 Y121.716 E30.99672
G1 X101.715 Y119.23 E31.08159
G1 X102.22 Y116.727 E31.16652
G1 X102.638 Y114.281 E31.24905
G1 X102.997 Y111.779 E31.33312
G1 X103.289 Y109.222 E31.41872
G1 X103.499 Y106.766 E31.50071
G1 X103.645 Y104.212 E31.58579
G1 X103.719 Y101.667 E31.67047
G1 X103.721 Y99.155 E31.75402
G1 X103.651 Y96.608 E31.83877
G1 X103.511 Y94.104 E31.92218
G1 X103.3 Y91.605 E32.00559
G1 X103.013 Y89.071 E32.09041
G1 X102.659 Y86.568 E32.17449
G1 X102.23 Y84.058 E32.25919
G1 X101.74 Y81.609 E32.34226
G1 X101.171 Y79.124 E32.42705
G1 X100.539 Y76.691 E32.51065
G1 X99.833 Y74.256 E32.59498
G1 X99.064 Y71.861 E32.67864
G1 X98.212 Y69.439 E32.76404
G1 X97.331 Y67.148 E32.84567
G1 X96.341 Y64.776 E32.93116
G1 X95.289 Y62.442 E33.01631
G1 X94.201 Y60.199 E33.09923
G1 X93.023 Y57.939 E33.184
G1 X91.801 Y55.747 E33.26747
G1 X90.105 Y52.909 E33.37743
G1 X89.669 Y52.098 E33.40805
G1 X89.304 Y51.253 E33.43867
G1 X89.014 Y50.379 E33.4693
G1 X88.802 Y49.483 E33.49992
G1 X88.667 Y48.572 E33.53055
G1 X88.616 Y47.806 E33.55608
G1 X88.601 Y47.155 E33.57774
G1 X88.602 Y43.045 E33.71444
G1 X88.611 Y42.356 E33.73736
G1 X88.663 Y41.436 E33.76801
G1 X88.794 Y40.525 E33.79862
G1 X89.005 Y39.629 E33.82924
G1 X89.292 Y38.754 E33.85986
G1 X89.654 Y37.908 E33.89047
G1 X90.088 Y37.096 E33.92109
G1 X90.59 Y36.324 E33.95172
G1 X91.158 Y35.6 E33.98233
G1 X91.787 Y34.927 E34.01297
G1 X92.472 Y34.312 E34.04358
G1 X93.207 Y33.758 E34.0742
G1 X93.988 Y33.27 E34.10483
G1 X94.808 Y32.851 E34.13545
G1 X95.661 Y32.506 E34.16606
G1 X96.541 Y32.235 E34.19668
G1 X97.441 Y32.043 E34.22729
G1 X98.355 Y31.929 E34.25793
G1 X98.913 Y31.898 E34.27651
G1 X99.531 Y31.885 E34.29707
G1 X166.494 Y31.885 E36.52427
G1 X166.645 Y31.886 E36.52929
G1 X167.345 Y31.896 E36.55258
G0 F6000 X167.351 Y31.496
G1 F1200 X168.287 Y31.549 E36.58376
G1 X169.216 Y31.682 E36.61497
G1 X170.13 Y31.894 E36.64618
G1 X171.022 Y32.183 E36.67737
G1 X171.886 Y32.546 E36.70854
G1 X172.394 Y32.802 E36.72746
G1 X172.983 Y33.118 E36.74969
G1 X175.372 Y34.365 E36.83932
G1 X177.59 Y35.444 E36.92136
G1 X179.914 Y36.495 E37.00619
G1 X182.25 Y37.473 E37.09042
G1 X184.608 Y38.379 E37.17444
G1 X186.941 Y39.205 E37.25675
G1 X189.358 Y39.982 E37.3412
G1 X191.748 Y40.677 E37.42398
G1 X194.213 Y41.319 E37.5087
G1 X196.688 Y41.891 E37.59319
G1 X199.103 Y42.374 E37.6751
G1 X200.646 Y42.64 E37.72718
G1 X201.299 Y42.762 E37.74928
G1 X202.213 Y42.973 E37.78048
G1 X203.105 Y43.262 E37.81166
G1 X203.97 Y43.625 E37.84286
G1 X204.8 Y44.061 E37.87405
G1 X205.591 Y44.566 E37.90526
G1 X206.335 Y45.136 E37.93643
G1 X207.028 Y45.768 E37.96763
G1 X207.665 Y46.457 E37.99884
G1 X208.241 Y47.197 E38.03003
G1 X208.752 Y47.984 E38.06124
G1 X209.194 Y48.811 E38.09242
G1 X209.564 Y49.673 E38.12362
G1 X209.859 Y50.563 E38.15481
G1 X210.077 Y51.475 E38.186
G1 X210.216 Y52.402 E38.21717
G1 X210.275 Y53.266 E38.24598
G1 X210.288 Y53.895 E38.2669
G1 X210.288 Y190.829 E42.82135
G1 X210.278 Y191.692 E42.85005
G1 X210.227 Y192.629 E42.88126
G1 X210.095 Y193.557 E42.91244
G1 X209.886 Y194.471 E42.94362
G1 X209.599 Y195.364 E42.97482
G1 X209.237 Y196.23 E43.00604
G1 X208.803 Y197.061 E43.03722
G1 X208.299 Y197.852 E43.06842
G1 X207.73 Y198.597 E43.09959
G1 X207.099 Y199.292 E43.13082
G1 X206.412 Y199.93 E43.162
G1 X205.673 Y200.507 E43.19318
G1 X204.887 Y201.019 E43.22438
G1 X204.061 Y201.462 E43.25556
G1 X203.199 Y201.834 E43.28678
G1 X202.31 Y202.13 E43.31795
G1 X201.398 Y202.35 E43.34915
G1 X200.471 Y202.491 E43.38034
G1 X199.587 Y202.552 E43.40981
G1 X198.958 Y202.565 E43.43074
G1 X189.739 Y202.564 E43.73736
G1 X187.816 Y202.535 E43.80133
G1 X187.429 Y202.524 E43.8142
G1 X184.935 Y202.521 E43.89715
G1 X184.574 Y202.531 E43.90917
G1 X182.018 Y202.565 E43.99419
G1 X159.838 Y202.564 E44.7319
G1 X159.138 Y202.554 E44.75518
G1 X158.202 Y202.501 E44.78636
G1 X157.273 Y202.368 E44.81758
G1 X156.725 Y202.251 E44.83621
G1 X156.141 Y202.108 E44.85621
G1 X154.35 Y201.643 E44.91775
G1 X151.911 Y201.082 E45.00099
G1 X149.376 Y200.571 E45.087
G1 X146.986 Y200.165 E45.16764
G1 X144.444 Y199.804 E45.25303
G1 X141.957 Y199.521 E45.33628
G1 X139.415 Y199.306 E45.42113
G1 X136.992 Y199.168 E45.50185
G1 X133.035 Y199.085 E45.63349
G1 X105.75 Y199.084 E46.54099
G1 X105.052 Y199.074 E46.56421
G1 X104.116 Y199.02 E46.5954
G1 X103.188 Y198.888 E46.62657
G1 X102.274 Y198.676 E46.65778
G1 X101.382 Y198.387 E46.68896
G1 X100.517 Y198.024 E46.72016
G1 X99.687 Y197.588 E46.75135
G1 X98.896 Y197.083 E46.78256
G1 X98.152 Y196.512 E46.81375
G1 X97.459 Y195.88 E46.84495
G1 X96.822 Y195.192 E46.87613
G1 X96.247 Y194.451 E46.90733
G1 X95.736 Y193.665 E46.93851
G1 X95.294 Y192.837 E46.96973
G1 X94.925 Y191.975 E47.00092
G1 X94.63 Y191.085 E47.0321
G1 X94.412 Y190.173 E47.06329
G1 X94.272 Y189.245 E47.0945
G1 X94.214 Y188.373 E47.12357
G1 X94.201 Y187.743 E47.14453
G1 X94.202 Y142.634 E48.64486
G1 X94.212 Y141.937 E48.66805
G1 X94.266 Y141.001 E48.69923
G1 X94.399 Y140.072 E48.73044
G1 X94.61 Y139.159 E48.76161
G1 X94.899 Y138.266 E48.79283
G1 X95.104 Y137.753 E48.8112
G1 X95.479 Y136.885 E48.84265
G1 X95.93 Y135.889 E48.87902
G1 X96.901 Y133.569 E48.96266
G1 X97.81 Y131.22 E49.04644
G1 X98.638 Y128.87 E49.12931
G1 X99.417 Y126.455 E49.21371
G1 X100.123 Y124.032 E49.29765
G1 X100.758 Y121.597 E49.38135
G1 X101.32 Y119.166 E49.46433
G1 X101.828 Y116.647 E49.5498
G1 X102.242 Y114.229 E49.6314
G1 X102.602 Y111.714 E49.7159
G1 X102.887 Y109.214 E49.79959
G1 X103.102 Y106.71 E49.88318
G1 X103.247 Y104.177 E49.96756
G1 X103.319 Y101.69 E50.05031
G1 X103.321 Y99.166 E50.13426
G1 X103.251 Y96.643 E50.21821
G1 X103.11 Y94.122 E50.30219
G1 X102.899 Y91.616 E50.38584
G1 X102.618 Y89.135 E50.46888
G1 X102.262 Y86.62 E50.55336
G1 X101.837 Y84.132 E50.63731
G1 X101.354 Y81.713 E50.71936
G1 X100.787 Y79.242 E50.80368
G1 X100.15 Y76.788 E50.88801
G1 X99.443 Y74.352 E50.97237
G1 X98.682 Y71.979 E51.05526
G1 X97.848 Y69.61 E51.13879
G1 X96.947 Y67.266 E51.22231
G1 X95.966 Y64.916 E51.30701
G1 X94.936 Y62.63 E51.39041
G1 X93.851 Y60.393 E51.4731
G1 X92.676 Y58.14 E51.55761
G1 X91.442 Y55.924 E51.64197
G1 X89.762 Y53.113 E51.75089
G1 X89.316 Y52.288 E51.78209
G1 X88.943 Y51.428 E51.81326
G1 X88.644 Y50.539 E51.84446
G1 X88.422 Y49.627 E51.87568
G1 X88.279 Y48.701 E51.90684
G1 X88.216 Y47.818 E51.93629
G1 X88.206 Y47.491 E51.94717
G1 X88.201 Y47.155 E51.95834
G1 X88.202 Y43.039 E52.09524
G1 X88.211 Y42.35 E52.11816
G1 X88.263 Y41.414 E52.14934
G1 X88.395 Y40.485 E52.18055
G1 X88.605 Y39.571 E52.21174
G1 X88.893 Y38.679 E52.24292
G1 X89.255 Y37.814 E52.2741
G1 X89.69 Y36.983 E52.3053
G1 X90.194 Y36.192 E52.3365
G1 X90.764 Y35.447 E52.3677
G1 X91.395 Y34.753 E52.39889
G1 X92.083 Y34.115 E52.4301
G1 X92.822 Y33.539 E52.46126
G1 X93.608 Y33.027 E52.49246
