;FLAVOR:Marlin
;TIME:29960
;Filament used: 21.8345m
;Layer height: 0.2
;MINX:102.827
;MINY:25.598
;MINZ:0.2
;MAXX:210.45
;MAXY:184.537
;MAXZ:64
;Generated with Cura_SteamEngine 4.6.1
M140 S50
M105
M190 S50
M104 S200
M105
M109 S200
M82 ;absolute extrusion mode
; Ender 3 Custom Start G-code
G92 E0 ; Reset Extruder
G28 ; Home all axes
G1 Z2.0 F3000 ; Move Z Axis up little to prevent scratching of Heat Bed
G1 X0.1 Y20 Z0.3 F5000.0 ; Move to start position
G1 X0.1 Y200.0 Z0.3 F1500.0 E15 ; Draw the first line
G1 X0.4 Y200.0 Z0.3 F5000.0 ; Move to side a little
G1 X0.4 Y20 Z0.3 F1500.0 E30 ; Draw the second line
G92 E0 ; Reset Extruder
G1 Z2.0 F3000 ; Move Z Axis up little to prevent scratching of Heat Bed
G1 X5 Y20 Z0.3 F5000.0 ; Move over to prevent blob squish
G92 E0
G92 E0
G1 F2700 E-5
;LAYER_COUNT:320
;LAYER:0
M107
G0 F6000 X170.966 Y26.409 Z0.2
;TYPE:SKIRT
G1 F2700 E0
G1 F1200 X171.868 Y26.462 E0.03005
G1 X172.761 Y26.594 E0.06008
G1 X173.64 Y26.805 E0.09014
G1 X174.496 Y27.093 E0.12018
G1 X175.323 Y27.455 E0.15021
G1 X176.115 Y27.889 E0.18025
G1 X176.865 Y28.392 E0.21028
G1 X177.568 Y28.959 E0.24032
G1 X178.218 Y29.585 E0.27033
G1 X178.811 Y30.267 E0.30039
G1 X179.265 Y30.887 E0.32595
G1 X179.974 Y31.935 E0.36804
G1 X180.163 Y32.224 E0.37952
G1 X181.626 Y34.324 E0.46465
G1 X183.126 Y36.35 E0.54849
G1 X184.692 Y38.348 E0.63292
G1 X186.306 Y40.29 E0.71691
G1 X187.998 Y42.212 E0.80208
G1 X189.818 Y44.167 E0.89092
G1 X190.171 Y44.534 E0.90785
G1 X190.767 Y45.212 E0.93788
G1 X191.3 Y45.941 E0.96791
G1 X191.768 Y46.714 E0.99797
G1 X192.165 Y47.525 E1.028
G1 X192.488 Y48.368 E1.05803
G1 X192.736 Y49.237 E1.08808
G1 X192.906 Y50.124 E1.11812
G1 X193.004 Y51.166 E1.15293
G1 X193.018 Y51.496 E1.16392
G1 X193.027 Y51.928 E1.17829
G1 X193.027 Y68.261 E1.72153
G1 X193.064 Y70.867 E1.80821
G1 X193.173 Y73.432 E1.8936
G1 X193.351 Y75.939 E1.9772
G1 X193.602 Y78.48 E2.06212
G1 X193.923 Y80.988 E2.14622
G1 X194.317 Y83.493 E2.23056
G1 X194.779 Y85.98 E2.31469
G1 X195.322 Y88.501 E2.40046
G1 X195.917 Y90.926 E2.48351
G1 X196.592 Y93.385 E2.56832
G1 X197.337 Y95.819 E2.65299
G1 X198.148 Y98.221 E2.73731
G1 X199.038 Y100.634 E2.82285
G1 X199.964 Y102.941 E2.90553
G1 X200.996 Y105.312 E2.99154
G1 X202.064 Y107.591 E3.07525
G1 X203.225 Y109.898 E3.16115
G1 X204.419 Y112.107 E3.24466
G1 X205.676 Y114.286 E3.32833
G1 X207.024 Y116.478 E3.41392
G1 X207.463 Y117.149 E3.44059
G1 X208.043 Y118.061 E3.47654
G1 X208.493 Y118.844 E3.50658
G1 X208.873 Y119.664 E3.53664
G1 X209.178 Y120.513 E3.56664
G1 X209.407 Y121.387 E3.59669
G1 X209.558 Y122.277 E3.62672
G1 X209.627 Y123.105 E3.65435
G1 X209.641 Y123.437 E3.6654
G1 X209.65 Y123.867 E3.67971
G1 X209.649 Y172.941 E5.31192
G1 X209.639 Y173.668 E5.3361
G1 X209.587 Y174.57 E5.36615
G1 X209.455 Y175.463 E5.39617
G1 X209.244 Y176.342 E5.42624
G1 X208.957 Y177.198 E5.45627
G1 X208.595 Y178.025 E5.48629
G1 X208.161 Y178.817 E5.51633
G1 X207.659 Y179.568 E5.54638
G1 X207.093 Y180.271 E5.57639
G1 X206.466 Y180.922 E5.60646
G1 X205.785 Y181.514 E5.63647
G1 X205.054 Y182.044 E5.6665
G1 X204.278 Y182.507 E5.69655
G1 X203.465 Y182.9 E5.72659
G1 X202.62 Y183.22 E5.75664
G1 X201.751 Y183.463 E5.78665
G1 X200.863 Y183.628 E5.81669
G1 X199.727 Y183.724 E5.85461
G1 X199.12 Y183.737 E5.8748
G1 X190.011 Y183.736 E6.17777
G1 X189.314 Y183.726 E6.20096
G1 X188.463 Y183.678 E6.22931
G1 X187.398 Y183.573 E6.2649
G1 X184.73 Y183.347 E6.35396
G1 X182.203 Y183.205 E6.43814
G1 X179.667 Y183.134 E6.52252
G1 X177.133 Y183.134 E6.6068
G1 X174.569 Y183.207 E6.69211
G1 X172.063 Y183.35 E6.7756
G1 X169.473 Y183.571 E6.86205
G1 X168.657 Y183.658 E6.88935
G1 X168.045 Y183.705 E6.90976
G1 X167.59 Y183.726 E6.92491
G1 X167.12 Y183.737 E6.94055
G1 X160.012 Y183.736 E7.17696
G1 X159.31 Y183.726 E7.20031
G1 X158.408 Y183.673 E7.23037
G1 X157.515 Y183.541 E7.26039
G1 X156.637 Y183.33 E7.29042
G1 X155.781 Y183.042 E7.32046
G1 X154.953 Y182.68 E7.35052
G1 X154.161 Y182.246 E7.38056
G1 X153.411 Y181.743 E7.41059
G1 X152.708 Y181.177 E7.44061
G1 X152.058 Y180.55 E7.47065
G1 X151.466 Y179.868 E7.50069
G1 X150.936 Y179.136 E7.53074
G1 X150.551 Y178.502 E7.55541
G1 X150.205 Y177.881 E7.57906
G1 X149.474 Y176.527 E7.63024
G1 X148.193 Y174.312 E7.71534
G1 X146.871 Y172.169 E7.79909
G1 X145.481 Y170.049 E7.8834
G1 X144.012 Y167.944 E7.96878
G1 X142.512 Y165.916 E8.05268
G1 X140.941 Y163.915 E8.13729
G1 X139.326 Y161.973 E8.2213
G1 X137.632 Y160.052 E8.30649
G1 X135.893 Y158.184 E8.39137
G1 X134.131 Y156.399 E8.47479
G1 X132.307 Y154.651 E8.55882
G1 X130.396 Y152.923 E8.64451
G1 X128.489 Y151.292 E8.72797
G1 X126.498 Y149.686 E8.81305
G1 X124.465 Y148.138 E8.89804
G1 X122.421 Y146.671 E8.98172
G1 X120.288 Y145.23 E9.06734
G1 X118.186 Y143.895 E9.15016
G1 X115.97 Y142.574 E9.23597
G1 X113.769 Y141.346 E9.31979
G1 X111.429 Y140.124 E9.4076
G1 X110.305 Y139.558 E9.44945
G1 X109.518 Y139.116 E9.47948
G1 X108.772 Y138.607 E9.50951
G1 X108.075 Y138.033 E9.53954
G1 X107.43 Y137.4 E9.5696
G1 X106.845 Y136.713 E9.59961
G1 X106.322 Y135.976 E9.62967
G1 X105.867 Y135.196 E9.65971
G1 X105.483 Y134.379 E9.68973
G1 X105.172 Y133.531 E9.71977
G1 X104.937 Y132.659 E9.74981
G1 X104.781 Y131.769 E9.77986
G1 X104.7 Y130.765 E9.81336
G1 X104.685 Y130.126 E9.83462
G1 X104.685 Y99.112 E10.86615
G1 X104.648 Y96.506 E10.95284
G1 X104.539 Y93.938 E11.03833
G1 X104.362 Y91.436 E11.12175
G1 X104.112 Y88.913 E11.20608
G1 X103.722 Y85.912 E11.30673
G1 X103.642 Y84.907 E11.34026
G1 X103.627 Y84.268 E11.36152
G1 X103.628 Y52.163 E12.42934
G1 X103.637 Y51.474 E12.45226
G1 X103.689 Y50.572 E12.48231
G1 X103.82 Y49.679 E12.51233
G1 X104.03 Y48.8 E12.54239
G1 X104.316 Y47.944 E12.5724
G1 X104.678 Y47.116 E12.60246
G1 X105.111 Y46.324 E12.63248
G1 X105.612 Y45.573 E12.66251
G1 X106.178 Y44.869 E12.69255
G1 X106.804 Y44.218 E12.72259
G1 X107.486 Y43.625 E12.75265
G1 X108.217 Y43.095 E12.78268
G1 X108.991 Y42.631 E12.8127
G1 X109.804 Y42.238 E12.84273
G1 X110.649 Y41.918 E12.87278
G1 X111.519 Y41.674 E12.90284
G1 X112.406 Y41.508 E12.93285
G1 X113.249 Y41.424 E12.96103
G1 X114.281 Y41.366 E12.9954
G1 X115.181 Y41.327 E13.02537
G1 X117.727 Y41.145 E13.11026
G1 X120.271 Y40.889 E13.1953
G1 X122.777 Y40.566 E13.27934
G1 X125.287 Y40.169 E13.36386
G1 X127.788 Y39.702 E13.44849
G1 X130.237 Y39.172 E13.53183
G1 X132.718 Y38.562 E13.6168
G1 X135.201 Y37.875 E13.70249
G1 X137.597 Y37.14 E13.78585
G1 X140.002 Y36.325 E13.8703
G1 X142.424 Y35.429 E13.9562
G1 X144.733 Y34.499 E14.03899
G1 X147.069 Y33.48 E14.12376
G1 X149.388 Y32.391 E14.20897
G1 X151.665 Y31.24 E14.29383
G1 X153.877 Y30.044 E14.37746
G1 X156.051 Y28.787 E14.46099
G1 X156.718 Y28.377 E14.48703
G1 X157.599 Y27.851 E14.52116
G1 X158.394 Y27.423 E14.55119
G1 X159.224 Y27.067 E14.58122
G1 X160.082 Y26.785 E14.61126
G1 X160.962 Y26.581 E14.64131
G1 X161.856 Y26.455 E14.67134
G1 X162.487 Y26.415 E14.69237
G1 X162.816 Y26.404 E14.70331
G1 X163.157 Y26.398 E14.71466
G1 X170.265 Y26.399 E14.95107
G1 X170.966 Y26.409 E14.97439
G0 F6000 X170.972 Y26.009
G1 F1200 X171.891 Y26.062 E15.00501
G1 X172.802 Y26.195 E15.03563
G1 X173.698 Y26.406 E15.06624
G1 X174.573 Y26.694 E15.09688
G1 X175.419 Y27.057 E15.1275
G1 X176.23 Y27.492 E15.15811
G1 X177.001 Y27.996 E15.18875
G1 X177.725 Y28.565 E15.21937
G1 X178.397 Y29.194 E15.24999
G1 X179.012 Y29.879 E15.28061
G1 X179.596 Y30.662 E15.31309
G1 X180.308 Y31.715 E15.35537
G1 X180.504 Y32.014 E15.36726
G1 X181.932 Y34.064 E15.45036
G1 X183.447 Y36.111 E15.53506
G1 X185.015 Y38.112 E15.61961
G1 X186.621 Y40.043 E15.70315
G1 X188.29 Y41.939 E15.78716
G1 X190.115 Y43.899 E15.87623
G1 X190.459 Y44.257 E15.89275
G1 X191.068 Y44.948 E15.92338
G1 X191.613 Y45.689 E15.95398
G1 X192.093 Y46.475 E15.98461
G1 X192.502 Y47.3 E16.01524
G1 X192.839 Y48.157 E16.04586
G1 X193.1 Y49.04 E16.07649
G1 X193.283 Y49.942 E16.1071
G1 X193.403 Y51.149 E16.14744
G1 X193.417 Y51.479 E16.15843
G1 X193.427 Y51.928 E16.17337
G1 X193.427 Y68.255 E16.7164
G1 X193.464 Y70.88 E16.80372
G1 X193.571 Y73.388 E16.88721
G1 X193.749 Y75.908 E16.97124
G1 X193.998 Y78.423 E17.0553
G1 X194.317 Y80.912 E17.13876
G1 X194.718 Y83.464 E17.22468
G1 X195.17 Y85.895 E17.30692
G1 X195.708 Y88.394 E17.39194
G1 X196.305 Y90.83 E17.47536
G1 X196.983 Y93.296 E17.56042
G1 X197.716 Y95.689 E17.64367
G1 X198.53 Y98.103 E17.7284
G1 X199.397 Y100.453 E17.81171
G1 X200.356 Y102.841 E17.8973
G1 X201.347 Y105.118 E17.97989
G1 X202.433 Y107.435 E18.065
G1 X203.569 Y109.693 E18.14907
G1 X204.759 Y111.895 E18.23232
G1 X206.02 Y114.082 E18.31629
G1 X207.367 Y116.271 E18.40177
G1 X207.8 Y116.935 E18.42814
G1 X208.38 Y117.847 E18.46409
G1 X208.84 Y118.644 E18.49469
G1 X209.229 Y119.479 E18.52533
G1 X209.544 Y120.344 E18.55595
G1 X209.783 Y121.233 E18.58657
G1 X209.944 Y122.139 E18.61717
G1 X210.027 Y123.088 E18.64886
G1 X210.041 Y123.42 E18.65991
G1 X210.05 Y123.867 E18.67478
G1 X210.049 Y172.947 E20.30719
G1 X210.039 Y173.674 E20.33137
G1 X209.986 Y174.593 E20.36199
G1 X209.854 Y175.504 E20.3926
G1 X209.643 Y176.4 E20.42322
G1 X209.356 Y177.275 E20.45385
G1 X208.993 Y178.121 E20.48447
G1 X208.559 Y178.933 E20.51509
G1 X208.055 Y179.704 E20.54573
G1 X207.487 Y180.428 E20.57633
G1 X206.858 Y181.1 E20.60695
G1 X206.173 Y181.715 E20.63757
G1 X205.437 Y182.268 E20.66819
G1 X204.656 Y182.756 E20.69882
G1 X203.836 Y183.174 E20.72943
G1 X202.982 Y183.519 E20.76006
G1 X202.102 Y183.788 E20.79067
G1 X201.201 Y183.981 E20.82132
G1 X200.288 Y184.094 E20.85191
G1 X199.738 Y184.124 E20.87023
G1 X199.12 Y184.137 E20.89079
G1 X190.005 Y184.136 E21.19396
G1 X189.308 Y184.126 E21.21714
G1 X188.424 Y184.076 E21.24659
G1 X187.327 Y183.968 E21.28326
G1 X184.709 Y183.746 E21.37064
G1 X182.204 Y183.605 E21.45409
G1 X179.656 Y183.534 E21.53887
G1 X177.145 Y183.534 E21.62239
G1 X174.601 Y183.607 E21.70704
G1 X172.086 Y183.75 E21.79082
G1 X169.505 Y183.97 E21.87698
G1 X168.7 Y184.056 E21.9039
G1 X168.064 Y184.105 E21.92512
G1 X167.609 Y184.126 E21.94027
G1 X167.12 Y184.137 E21.95654
G1 X160.006 Y184.136 E22.19315
G1 X159.304 Y184.126 E22.2165
G1 X158.385 Y184.073 E22.24712
G1 X157.474 Y183.94 E22.27774
G1 X156.578 Y183.729 E22.30836
G1 X155.703 Y183.441 E22.33899
G1 X154.857 Y183.078 E22.36961
G1 X154.046 Y182.643 E22.40022
G1 X153.275 Y182.139 E22.43086
G1 X152.551 Y181.571 E22.46146
G1 X151.879 Y180.941 E22.4921
G1 X151.265 Y180.256 E22.5227
G1 X150.712 Y179.52 E22.55332
G1 X150.201 Y178.697 E22.58554
G1 X149.853 Y178.072 E22.60933
G1 X149.125 Y176.724 E22.66029
G1 X147.848 Y174.516 E22.74512
G1 X146.529 Y172.376 E22.82873
G1 X145.146 Y170.267 E22.91261
G1 X143.683 Y168.171 E22.99763
G1 X142.204 Y166.172 E23.08034
G1 X140.617 Y164.151 E23.1658
G1 X139.02 Y162.23 E23.24889
G1 X137.357 Y160.344 E23.33252
G1 X135.598 Y158.455 E23.41837
G1 X133.852 Y156.686 E23.50104
G1 X132.009 Y154.92 E23.58594
G1 X130.151 Y153.24 E23.66925
G1 X128.224 Y151.591 E23.75361
G1 X126.251 Y149.999 E23.83793
G1 X124.236 Y148.465 E23.92216
G1 X122.17 Y146.983 E24.00673
G1 X120.113 Y145.593 E24.0893
G1 X117.946 Y144.217 E24.17468
G1 X115.802 Y142.939 E24.25769
G1 X113.568 Y141.692 E24.34279
G1 X111.215 Y140.464 E24.43107
G1 X110.125 Y139.915 E24.47166
G1 X109.322 Y139.466 E24.50226
G1 X108.561 Y138.948 E24.53288
G1 X107.847 Y138.366 E24.56351
G1 X107.187 Y137.725 E24.59411
G1 X106.584 Y137.029 E24.62474
G1 X106.045 Y136.283 E24.65535
G1 X105.572 Y135.493 E24.68598
G1 X105.169 Y134.665 E24.71661
G1 X104.84 Y133.805 E24.74723
G1 X104.587 Y132.92 E24.77785
G1 X104.411 Y132.016 E24.80848
G1 X104.3 Y130.777 E24.84985
G1 X104.29 Y130.454 E24.8606
G1 X104.285 Y130.126 E24.87151
G1 X104.285 Y99.118 E25.90284
G1 X104.248 Y96.493 E25.99016
G1 X104.141 Y93.985 E26.07365
G1 X103.963 Y91.464 E26.15771
G1 X103.716 Y88.975 E26.2409
G1 X103.325 Y85.964 E26.34189
G1 X103.242 Y84.919 E26.37675
G1 X103.227 Y84.268 E26.39841
G1 X103.228 Y52.158 E27.46639
G1 X103.237 Y51.469 E27.48931
G1 X103.289 Y50.549 E27.51996
G1 X103.42 Y49.638 E27.55057
G1 X103.631 Y48.742 E27.58119
G1 X103.918 Y47.867 E27.61182
G1 X104.28 Y47.021 E27.64242
G1 X104.714 Y46.209 E27.67304
G1 X105.216 Y45.437 E27.70367
G1 X105.784 Y44.713 E27.73428
G1 X106.413 Y44.04 E27.76492
G1 X107.098 Y43.425 E27.79554
G1 X107.833 Y42.871 E27.82615
G1 X108.614 Y42.383 E27.85678
G1 X109.434 Y41.964 E27.88741
G1 X110.287 Y41.619 E27.91801
G1 X111.167 Y41.348 E27.94864
G1 X112.067 Y41.156 E27.97924
G1 X113.226 Y41.025 E28.01804
G1 X114.264 Y40.966 E28.05262
G1 X115.171 Y40.927 E28.08281
G1 X117.692 Y40.746 E28.16688
G1 X120.216 Y40.492 E28.25125
G1 X122.735 Y40.167 E28.33573
G1 X125.223 Y39.775 E28.4195
G1 X127.703 Y39.311 E28.50341
G1 X130.154 Y38.781 E28.58682
G1 X132.621 Y38.174 E28.67132
G1 X135.059 Y37.5 E28.75545
G1 X137.489 Y36.754 E28.83999
G1 X139.871 Y35.947 E28.92364
G1 X142.253 Y35.065 E29.00812
G1 X144.62 Y34.113 E29.09298
G1 X146.888 Y33.123 E29.17529
G1 X149.216 Y32.029 E29.26084
G1 X151.459 Y30.897 E29.34441
G1 X153.68 Y29.695 E29.4284
G1 X155.889 Y28.417 E29.51328
G1 X156.513 Y28.034 E29.53763
G1 X157.394 Y27.508 E29.57176
G1 X158.204 Y27.071 E29.60237
G1 X159.049 Y26.705 E29.633
G1 X159.923 Y26.415 E29.66363
G1 X160.819 Y26.201 E29.69427
G1 X161.729 Y26.066 E29.72487
G1 X162.474 Y26.015 E29.7497
G1 X162.803 Y26.004 E29.76065
G1 X163.157 Y25.998 E29.77243
G1 X170.271 Y25.999 E30.00904
G1 X170.972 Y26.009 E30.03236
G0 F6000 X170.978 Y25.609
G1 F1200 X171.914 Y25.662 E30.06354
G1 X172.843 Y25.795 E30.09475
G1 X173.756 Y26.007 E30.12593
G1 X174.649 Y26.295 E30.15713
G1 X175.513 Y26.659 E30.18832
G1 X176.344 Y27.095 E30.21953
G1 X177.134 Y27.6 E30.25072
G1 X177.878 Y28.17 E30.28189
G1 X178.571 Y28.802 E30.31308
G1 X179.208 Y29.491 E30.34429
G1 X179.928 Y30.438 E30.38386
G1 X180.824 Y31.772 E30.43731
G1 X182.282 Y33.866 E30.52217
G1 X183.763 Y35.867 E30.60497
G1 X185.299 Y37.826 E30.68777
G1 X186.93 Y39.789 E30.77266
G1 X188.6 Y41.685 E30.85669
G1 X190.383 Y43.599 E30.94369
G1 X190.748 Y43.98 E30.96124
G1 X191.368 Y44.683 E30.99242
G1 X191.926 Y45.437 E31.02362
G1 X192.418 Y46.236 E31.05483
G1 X192.839 Y47.074 E31.08602
G1 X193.188 Y47.944 E31.1172
G1 X193.462 Y48.841 E31.14839
G1 X193.658 Y49.758 E31.17958
G1 X193.803 Y51.132 E31.22553
G1 X193.817 Y51.462 E31.23652
G1 X193.827 Y51.928 E31.25202
G1 X193.827 Y68.249 E31.79486
G1 X193.864 Y70.857 E31.88161
G1 X193.971 Y73.378 E31.96553
G1 X194.148 Y75.873 E32.04873
G1 X194.396 Y78.373 E32.13229
G1 X194.715 Y80.866 E32.21588
G1 X195.106 Y83.359 E32.29981
G1 X195.569 Y85.849 E32.38405
G1 X196.099 Y88.312 E32.46784
G1 X196.687 Y90.708 E32.5499
G1 X197.366 Y93.178 E32.6351
G1 X198.102 Y95.581 E32.71869
G1 X198.909 Y97.973 E32.80265
G1 X199.772 Y100.313 E32.8856
G1 X200.718 Y102.669 E32.97005
G1 X201.718 Y104.967 E33.0534
G1 X202.794 Y107.264 E33.13777
G1 X203.913 Y109.488 E33.22057
G1 X205.124 Y111.727 E33.30524
G1 X206.373 Y113.894 E33.38843
G1 X207.683 Y116.023 E33.47157
G1 X208.138 Y116.72 E33.49925
G1 X208.718 Y117.632 E33.5352
G1 X209.187 Y118.444 E33.56639
G1 X209.585 Y119.293 E33.59758
G1 X209.91 Y120.173 E33.62878
G1 X210.158 Y121.078 E33.65999
G1 X210.328 Y122 E33.69117
G1 X210.426 Y123.072 E33.72697
G1 X210.44 Y123.404 E33.73803
G1 X210.45 Y123.867 E33.75343
G1 X210.449 Y172.952 E35.386
G1 X210.439 Y173.679 E35.41019
G1 X210.386 Y174.616 E35.4414
G1 X210.254 Y175.544 E35.47258
G1 X210.043 Y176.458 E35.50378
G1 X209.754 Y177.35 E35.53496
G1 X209.391 Y178.215 E35.56616
G1 X208.956 Y179.046 E35.59736
G1 X208.451 Y179.836 E35.62854
G1 X207.881 Y180.581 E35.65974
G1 X207.25 Y181.275 E35.69094
G1 X206.561 Y181.912 E35.72215
G1 X205.821 Y182.488 E35.75334
G1 X205.035 Y182.999 E35.78452
G1 X204.208 Y183.441 E35.81571
G1 X203.346 Y183.811 E35.84691
G1 X202.456 Y184.106 E35.87809
G1 X201.544 Y184.325 E35.90929
G1 X200.617 Y184.465 E35.94047
G1 X199.749 Y184.524 E35.96941
G1 X199.12 Y184.537 E35.99033
G1 X189.999 Y184.536 E36.2937
G1 X189.302 Y184.526 E36.31688
G1 X188.385 Y184.474 E36.34743
G1 X187.331 Y184.37 E36.38266
G1 X184.687 Y184.146 E36.47091
G1 X182.171 Y184.005 E36.55473
G1 X179.645 Y183.934 E36.63878
G1 X177.121 Y183.934 E36.72272
G1 X174.636 Y184.005 E36.80541
G1 X172.103 Y184.15 E36.8898
