;FLAVOR:Marlin
;TIME:29975
;Filament used: 23.4568m
;Layer height: 0.2
;MINX:62.063
;MINY:31.124
;MINZ:0.2
;MAXX:215.738
;MAXY:200.726
;MAXZ:25
;Generated with Cura_SteamEngine 4.6.1
M140 S50
M105
M190 S50
M104 S200
M105
M109 S200
M82 ;absolute extrusion mode
; Ender 3 Custom Start G-code
G92 E0 ; Reset Extruder
G28 ; Home all axes
G1 Z2.0 F3000 ; Move Z Axis up little to prevent scratching of Heat Bed
G1 X0.1 Y20 Z0.3 F5000.0 ; Move to start position
G1 X0.1 Y200.0 Z0.3 F1500.0 E15 ; Draw the first line
G1 X0.4 Y200.0 Z0.3 F5000.0 ; Move to side a little
G1 X0.4 Y20 Z0.3 F1500.0 E30 ; Draw the second line
G92 E0 ; Reset Extruder
G1 Z2.0 F3000 ; Move Z Axis up little to prevent scratching of Heat Bed
G1 X5 Y20 Z0.3 F5000.0 ; Move over to prevent blob squish
G92 E0
G92 E0
G1 F2700 E-5
;LAYER_COUNT:125
;LAYER:0
M107
G0 F6000 X86.251 Y33.161 Z0.2
;TYPE:SKIRT
G1 F2700 E0
G1 F1200 X86.445 Y32.712 E0.01627
G1 X86.71 Y32.3 E0.03256
G1 X87.038 Y31.937 E0.04883
G1 X87.421 Y31.632 E0.06512
G1 X87.849 Y31.394 E0.08141
G1 X88.309 Y31.228 E0.09767
G1 X88.79 Y31.139 E0.11394
G1 X89.092 Y31.124 E0.124
G1 X157.092 Y31.124 E2.38569
G1 X157.58 Y31.164 E2.40197
G1 X158.055 Y31.283 E2.41826
G1 X158.504 Y31.477 E2.43453
G1 X158.916 Y31.742 E2.45082
G1 X159.279 Y32.07 E2.46709
G1 X159.584 Y32.453 E2.48338
G1 X159.822 Y32.881 E2.49967
G1 X159.988 Y33.341 E2.51593
G1 X160.077 Y33.822 E2.5322
G1 X160.092 Y34.124 E2.54226
G1 X160.092 Y39.124 E2.70856
G1 X160.052 Y39.612 E2.72484
G1 X159.933 Y40.087 E2.74113
G1 X159.739 Y40.536 E2.7574
G1 X159.474 Y40.948 E2.77369
G1 X159.146 Y41.311 E2.78996
G1 X158.763 Y41.616 E2.80625
G1 X158.335 Y41.854 E2.82254
G1 X157.875 Y42.02 E2.8388
G1 X157.394 Y42.109 E2.85507
G1 X157.092 Y42.124 E2.86513
G1 X136.092 Y42.124 E3.56359
G1 X136.092 Y130.724 E6.51044
G1 X145.092 Y130.724 E6.80978
G1 X145.58 Y130.764 E6.82607
G1 X146.007 Y130.871 E6.84071
G1 X146.007 Y46.866 E9.63472
G1 X146.047 Y46.378 E9.65101
G1 X146.166 Y45.903 E9.6673
G1 X146.36 Y45.454 E9.68356
G1 X146.625 Y45.042 E9.69986
G1 X146.953 Y44.679 E9.71613
G1 X147.336 Y44.374 E9.73241
G1 X147.764 Y44.136 E9.7487
G1 X148.224 Y43.97 E9.76497
G1 X148.705 Y43.881 E9.78124
G1 X149.007 Y43.866 E9.79129
G1 X189.007 Y43.866 E11.1217
G1 X189.495 Y43.906 E11.13798
G1 X189.97 Y44.025 E11.15427
G1 X190.419 Y44.219 E11.17054
G1 X190.831 Y44.484 E11.18683
G1 X191.194 Y44.812 E11.2031
G1 X191.499 Y45.195 E11.21939
G1 X191.737 Y45.623 E11.23568
G1 X191.903 Y46.083 E11.25194
G1 X191.992 Y46.564 E11.26821
G1 X192.007 Y46.866 E11.27827
G1 X192.007 Y184.866 E15.86817
G1 X191.967 Y185.354 E15.88445
G1 X191.848 Y185.829 E15.90074
G1 X191.654 Y186.278 E15.91701
G1 X191.389 Y186.69 E15.9333
G1 X191.356 Y186.726 E15.93493
G1 X197.738 Y186.726 E16.14719
G1 X197.738 Y146.726 E17.4776
G1 X197.778 Y146.238 E17.49388
G1 X197.897 Y145.763 E17.51017
G1 X198.091 Y145.314 E17.52644
G1 X198.356 Y144.902 E17.54273
G1 X198.684 Y144.539 E17.559
G1 X199.067 Y144.234 E17.57529
G1 X199.495 Y143.996 E17.59158
G1 X199.955 Y143.83 E17.60784
G1 X200.436 Y143.741 E17.62411
G1 X200.738 Y143.726 E17.63417
G1 X212.738 Y143.726 E18.03329
G1 X213.226 Y143.766 E18.04957
G1 X213.701 Y143.885 E18.06586
G1 X214.15 Y144.079 E18.08213
G1 X214.562 Y144.344 E18.09842
G1 X214.925 Y144.672 E18.11469
G1 X215.23 Y145.055 E18.13098
G1 X215.468 Y145.483 E18.14727
G1 X215.634 Y145.943 E18.16353
G1 X215.723 Y146.424 E18.1798
G1 X215.738 Y146.726 E18.18986
G1 X215.738 Y197.726 E19.88613
G1 X215.698 Y198.214 E19.90241
G1 X215.579 Y198.689 E19.9187
G1 X215.385 Y199.138 E19.93497
G1 X215.12 Y199.55 E19.95126
G1 X214.792 Y199.913 E19.96753
G1 X214.409 Y200.218 E19.98382
G1 X213.981 Y200.456 E20.0001
G1 X213.521 Y200.622 E20.01637
G1 X213.04 Y200.711 E20.03264
G1 X212.738 Y200.726 E20.0427
G1 X65.063 Y200.726 E24.95439
G1 X64.575 Y200.686 E24.97067
G1 X64.1 Y200.567 E24.98696
G1 X63.651 Y200.373 E25.00323
G1 X63.239 Y200.108 E25.01952
G1 X62.876 Y199.78 E25.03579
G1 X62.571 Y199.397 E25.05208
G1 X62.333 Y198.969 E25.06836
G1 X62.167 Y198.509 E25.08463
G1 X62.078 Y198.028 E25.1009
G1 X62.063 Y197.726 E25.11096
G1 X62.063 Y146.726 E26.80722
G1 X62.103 Y146.238 E26.82351
G1 X62.222 Y145.763 E26.8398
G1 X62.416 Y145.314 E26.85606
G1 X62.681 Y144.902 E26.87236
G1 X63.009 Y144.539 E26.88863
G1 X63.392 Y144.234 E26.90491
G1 X63.82 Y143.996 E26.9212
G1 X64.28 Y143.83 E26.93747
G1 X64.761 Y143.741 E26.95374
G1 X65.063 Y143.726 E26.96379
G1 X77.063 Y143.726 E27.36292
G1 X77.551 Y143.766 E27.3792
G1 X78.026 Y143.885 E27.39549
G1 X78.475 Y144.079 E27.41176
G1 X78.887 Y144.344 E27.42805
G1 X79.25 Y144.672 E27.44432
G1 X79.555 Y145.055 E27.46061
G1 X79.793 Y145.483 E27.47689
G1 X79.959 Y145.943 E27.49316
G1 X80.048 Y146.424 E27.50943
G1 X80.063 Y146.726 E27.51949
G1 X80.063 Y186.726 E28.84989
G1 X133.836 Y186.726 E30.63839
G1 X133.836 Y185.225 E30.68831
G1 X133.876 Y184.737 E30.7046
G1 X133.995 Y184.263 E30.72085
G1 X134.189 Y183.813 E30.73715
G1 X134.454 Y183.402 E30.75342
G1 X134.783 Y183.039 E30.76971
G1 X135.166 Y182.734 E30.78599
G1 X95.092 Y182.724 E32.11886
G1 X94.604 Y182.684 E32.13515
G1 X94.129 Y182.565 E32.15143
G1 X93.68 Y182.371 E32.1677
G1 X93.268 Y182.106 E32.18399
G1 X92.905 Y181.778 E32.20027
G1 X92.6 Y181.395 E32.21655
G1 X92.362 Y180.967 E32.23284
G1 X92.196 Y180.507 E32.2491
G1 X92.107 Y180.026 E32.26537
G1 X92.092 Y179.724 E32.27543
G1 X92.092 Y133.724 E33.8054
G1 X92.132 Y133.236 E33.82168
G1 X92.251 Y132.761 E33.83797
G1 X92.445 Y132.312 E33.85424
G1 X92.71 Y131.9 E33.87053
G1 X93.038 Y131.537 E33.8868
G1 X93.421 Y131.232 E33.90309
G1 X93.849 Y130.994 E33.91937
G1 X94.309 Y130.828 E33.93564
G1 X94.79 Y130.739 E33.95191
G1 X95.092 Y130.724 E33.96197
G1 X110.092 Y130.724 E34.46087
G1 X110.092 Y42.124 E37.40772
G1 X89.092 Y42.124 E38.10618
G1 X88.604 Y42.084 E38.12247
G1 X88.129 Y41.965 E38.13875
G1 X87.68 Y41.771 E38.15502
G1 X87.268 Y41.506 E38.17131
G1 X86.905 Y41.178 E38.18759
G1 X86.6 Y40.795 E38.20387
G1 X86.362 Y40.367 E38.22016
G1 X86.196 Y39.907 E38.23642
G1 X86.107 Y39.426 E38.25269
G1 X86.092 Y39.124 E38.26275
G1 X86.092 Y34.124 E38.42905
G1 X86.132 Y33.636 E38.44534
G1 X86.251 Y33.161 E38.46162
G0 F6000 X86.65 Y33.23
G1 F1200 X86.844 Y32.818 E38.47677
G1 X87.107 Y32.445 E38.49195
G1 X87.43 Y32.124 E38.50709
G1 X87.805 Y31.865 E38.52225
G1 X88.219 Y31.675 E38.5374
G1 X88.66 Y31.56 E38.55256
G1 X89.092 Y31.524 E38.56698
G1 X157.092 Y31.524 E40.82867
G1 X157.546 Y31.564 E40.84383
G1 X157.986 Y31.682 E40.85898
G1 X158.398 Y31.876 E40.87413
G1 X158.771 Y32.139 E40.88931
G1 X159.092 Y32.462 E40.90445
G1 X159.351 Y32.837 E40.91961
G1 X159.541 Y33.251 E40.93476
G1 X159.656 Y33.692 E40.94992
G1 X159.692 Y34.124 E40.96434
G1 X159.692 Y39.124 E41.13064
G1 X159.652 Y39.578 E41.1458
G1 X159.534 Y40.018 E41.16095
G1 X159.34 Y40.43 E41.17609
G1 X159.077 Y40.803 E41.19127
G1 X158.754 Y41.124 E41.20642
G1 X158.379 Y41.383 E41.22158
G1 X157.965 Y41.573 E41.23673
G1 X157.524 Y41.688 E41.25189
G1 X157.092 Y41.724 E41.2663
G1 X135.692 Y41.724 E41.97807
G1 X135.692 Y131.124 E44.95153
G1 X145.092 Y131.124 E45.26417
G1 X145.546 Y131.164 E45.27933
G1 X145.986 Y131.282 E45.29448
G1 X146.398 Y131.476 E45.30963
G1 X146.407 Y46.866 E48.12377
G1 X146.447 Y46.412 E48.13893
G1 X146.565 Y45.972 E48.15408
G1 X146.759 Y45.56 E48.16923
G1 X147.022 Y45.187 E48.18441
G1 X147.345 Y44.866 E48.19955
G1 X147.72 Y44.607 E48.21471
G1 X148.134 Y44.417 E48.22986
G1 X148.575 Y44.302 E48.24502
G1 X149.007 Y44.266 E48.25944
G1 X189.007 Y44.266 E49.58984
G1 X189.461 Y44.306 E49.605
G1 X189.901 Y44.424 E49.62015
G1 X190.313 Y44.618 E49.6353
G1 X190.686 Y44.881 E49.65048
G1 X191.007 Y45.204 E49.66562
G1 X191.266 Y45.579 E49.68078
G1 X191.456 Y45.993 E49.69593
G1 X191.571 Y46.434 E49.71109
G1 X191.607 Y46.866 E49.72551
G1 X191.607 Y184.866 E54.31541
G1 X191.567 Y185.32 E54.33057
G1 X191.449 Y185.76 E54.34572
G1 X191.255 Y186.172 E54.36087
G1 X190.992 Y186.545 E54.37605
G1 X190.669 Y186.866 E54.39119
G1 X190.294 Y187.125 E54.40635
G1 X198.138 Y187.126 E54.66724
G1 X198.138 Y146.726 E56.01095
G1 X198.178 Y146.272 E56.02611
G1 X198.296 Y145.832 E56.04126
G1 X198.49 Y145.42 E56.05641
G1 X198.753 Y145.047 E56.07159
G1 X199.076 Y144.726 E56.08673
G1 X199.451 Y144.467 E56.10189
G1 X199.865 Y144.277 E56.11704
G1 X200.306 Y144.162 E56.1322
G1 X200.738 Y144.126 E56.14662
G1 X212.738 Y144.126 E56.54574
G1 X213.192 Y144.166 E56.5609
G1 X213.632 Y144.284 E56.57605
G1 X214.044 Y144.478 E56.5912
G1 X214.417 Y144.741 E56.60638
G1 X214.738 Y145.064 E56.62152
G1 X214.997 Y145.439 E56.63668
G1 X215.187 Y145.853 E56.65183
G1 X215.302 Y146.294 E56.66699
G1 X215.338 Y146.726 E56.68141
G1 X215.338 Y197.726 E58.37767
G1 X215.298 Y198.18 E58.39283
G1 X215.18 Y198.62 E58.40798
G1 X214.986 Y199.032 E58.42313
G1 X214.723 Y199.405 E58.43831
G1 X214.4 Y199.726 E58.45346
G1 X214.025 Y199.985 E58.46862
G1 X213.611 Y200.175 E58.48377
G1 X213.17 Y200.29 E58.49892
G1 X212.738 Y200.326 E58.51334
G1 X65.063 Y200.326 E63.42503
G1 X64.609 Y200.286 E63.44019
G1 X64.169 Y200.168 E63.45534
G1 X63.757 Y199.974 E63.47049
G1 X63.384 Y199.711 E63.48567
G1 X63.063 Y199.388 E63.50081
G1 X62.804 Y199.013 E63.51597
G1 X62.614 Y198.599 E63.53112
G1 X62.499 Y198.158 E63.54628
G1 X62.463 Y197.726 E63.5607
G1 X62.463 Y146.726 E65.25697
G1 X62.503 Y146.272 E65.27213
G1 X62.621 Y145.832 E65.28728
G1 X62.815 Y145.42 E65.30242
G1 X63.078 Y145.047 E65.3176
G1 X63.401 Y144.726 E65.33275
G1 X63.776 Y144.467 E65.34791
G1 X64.19 Y144.277 E65.36306
G1 X64.631 Y144.162 E65.37822
G1 X65.063 Y144.126 E65.39263
G1 X77.063 Y144.126 E65.79176
G1 X77.517 Y144.166 E65.80691
G1 X77.957 Y144.284 E65.82207
G1 X78.369 Y144.478 E65.83721
G1 X78.742 Y144.741 E65.85239
G1 X79.063 Y145.064 E65.86754
G1 X79.322 Y145.439 E65.8827
G1 X79.512 Y145.853 E65.89785
G1 X79.627 Y146.294 E65.91301
G1 X79.663 Y146.726 E65.92742
G1 X79.663 Y187.126 E67.27113
G1 X134.236 Y187.126 E69.08624
G1 X134.236 Y185.225 E69.14947
G1 X134.276 Y184.772 E69.16459
G1 X134.395 Y184.332 E69.17975
G1 X134.588 Y183.919 E69.19491
G1 X134.851 Y183.547 E69.21007
G1 X135.175 Y183.226 E69.22524
G1 X135.549 Y182.967 E69.24037
G1 X135.963 Y182.777 E69.25552
G1 X136.404 Y182.662 E69.27068
G1 X136.836 Y182.626 E69.28509
G1 X140.961 Y182.626 E69.42229
G1 X141.415 Y182.666 E69.43745
G1 X141.855 Y182.784 E69.4526
G1 X142.267 Y182.978 E69.46775
G1 X142.64 Y183.241 E69.48293
G1 X142.961 Y183.564 E69.49807
G1 X143.22 Y183.939 E69.51323
G1 X143.41 Y184.353 E69.52838
G1 X143.525 Y184.794 E69.54354
G1 X143.561 Y185.224 E69.55789
G1 X143.563 Y187.126 E69.62115
G1 X147.726 Y187.126 E69.75962
G1 X147.329 Y186.852 E69.77566
G1 X147.008 Y186.528 E69.79083
G1 X146.748 Y186.154 E69.80598
G1 X146.558 Y185.74 E69.82113
G1 X146.443 Y185.299 E69.83629
G1 X146.407 Y184.866 E69.85074
G1 X146.407 Y181.964 E69.94726
G1 X145.965 Y182.173 E69.96352
G1 X145.524 Y182.288 E69.97868
G1 X145.092 Y182.324 E69.9931
G1 X95.092 Y182.324 E71.65611
G1 X94.638 Y182.284 E71.67126
G1 X94.198 Y182.166 E71.68642
G1 X93.786 Y181.972 E71.70156
G1 X93.413 Y181.709 E71.71674
G1 X93.092 Y181.386 E71.73189
G1 X92.833 Y181.011 E71.74705
G1 X92.643 Y180.597 E71.7622
G1 X92.528 Y180.156 E71.77735
G1 X92.492 Y179.724 E71.79177
G1 X92.492 Y133.724 E73.32174
G1 X92.532 Y133.27 E73.3369
G1 X92.65 Y132.83 E73.35205
G1 X92.844 Y132.418 E73.3672
G1 X93.107 Y132.045 E73.38238
G1 X93.43 Y131.724 E73.39752
G1 X93.805 Y131.465 E73.41268
G1 X94.219 Y131.275 E73.42783
G1 X94.66 Y131.16 E73.44299
G1 X95.092 Y131.124 E73.45741
G1 X110.492 Y131.124 E73.96961
G1 X110.492 Y41.724 E76.94307
G1 X89.092 Y41.724 E77.65484
G1 X88.638 Y41.684 E77.66999
G1 X88.198 Y41.566 E77.68515
G1 X87.786 Y41.372 E77.70029
G1 X87.413 Y41.109 E77.71547
G1 X87.092 Y40.786 E77.73062
G1 X86.833 Y40.411 E77.74578
G1 X86.643 Y39.997 E77.76093
G1 X86.528 Y39.556 E77.77608
G1 X86.492 Y39.124 E77.7905
G1 X86.492 Y34.124 E77.9568
G1 X86.532 Y33.67 E77.97196
G1 X86.65 Y33.23 E77.98711
G0 F6000 X87.05 Y33.305
G1 F1200 X87.243 Y32.933 E78.00105
G1 X87.502 Y32.604 E78.01498
G1 X87.819 Y32.33 E78.02892
G1 X88.182 Y32.121 E78.04285
G1 X88.579 Y31.985 E78.0568
G1 X89.092 Y31.924 E78.07399
G1 X157.092 Y31.924 E80.33568
G1 X157.509 Y31.964 E80.34961
G1 X157.911 Y32.082 E80.36354
G1 X158.283 Y32.275 E80.37748
G1 X158.612 Y32.534 E80.39141
G1 X158.886 Y32.851 E80.40535
G1 X159.095 Y33.214 E80.41928
G1 X159.231 Y33.611 E80.43323
G1 X159.292 Y34.124 E80.45042
G1 X159.292 Y39.124 E80.61672
G1 X159.252 Y39.541 E80.63065
G1 X159.134 Y39.943 E80.64459
G1 X158.941 Y40.315 E80.65852
G1 X158.682 Y40.644 E80.67245
G1 X158.365 Y40.918 E80.68639
G1 X158.002 Y41.127 E80.70032
G1 X157.605 Y41.263 E80.71428
G1 X157.092 Y41.324 E80.73146
G1 X135.292 Y41.324 E81.45653
G1 X135.292 Y131.524 E84.45659
G1 X145.092 Y131.524 E84.78254
G1 X145.509 Y131.564 E84.79648
G1 X145.911 Y131.682 E84.81041
G1 X146.283 Y131.875 E84.82435
G1 X146.612 Y132.134 E84.83828
G1 X146.807 Y132.36 E84.84821
G1 X146.807 Y46.866 E87.69175
G1 X146.847 Y46.449 E87.70568
G1 X146.965 Y46.047 E87.71961
G1 X147.158 Y45.675 E87.73355
G1 X147.417 Y45.346 E87.74748
G1 X147.734 Y45.072 E87.76142
G1 X148.097 Y44.863 E87.77535
G1 X148.494 Y44.727 E87.78931
G1 X149.007 Y44.666 E87.80649
G1 X189.007 Y44.666 E89.13689
G1 X189.424 Y44.706 E89.15083
G1 X189.826 Y44.824 E89.16476
G1 X190.198 Y45.017 E89.1787
G1 X190.527 Y45.276 E89.19263
G1 X190.801 Y45.593 E89.20656
G1 X191.01 Y45.956 E89.22049
G1 X191.146 Y46.353 E89.23445
G1 X191.207 Y46.866 E89.25163
G1 X191.207 Y184.866 E93.84153
G1 X191.167 Y185.283 E93.85547
G1 X191.049 Y185.685 E93.8694
G1 X190.856 Y186.057 E93.88334
G1 X190.597 Y186.386 E93.89727
G1 X190.28 Y186.66 E93.9112
G1 X189.917 Y186.869 E93.92513
G1 X189.52 Y187.005 E93.93909
G1 X189.007 Y187.066 E93.95627
G1 X178.907 Y187.066 E94.2922
G1 X178.49 Y187.026 E94.30614
G1 X178.088 Y186.908 E94.32007
G1 X177.716 Y186.715 E94.33401
G1 X177.387 Y186.456 E94.34794
G1 X177.113 Y186.139 E94.36187
G1 X176.904 Y185.776 E94.3758
G1 X176.768 Y185.379 E94.38976
G1 X176.714 Y185.036 E94.40131
G1 X176.689 Y184.719 E94.41189
G1 X176.656 Y184.578 E94.4167
G1 X176.596 Y184.433 E94.42192
G1 X176.527 Y184.32 E94.42632
G1 X176.423 Y184.199 E94.43163
G1 X176.31 Y184.102 E94.43658
G1 X176.182 Y184.023 E94.44159
G1 X176.05 Y183.969 E94.44633
G1 X175.907 Y183.935 E94.45122
G1 X175.757 Y183.923 E94.45622
G1 X175.609 Y183.934 E94.46116
G1 X175.467 Y183.968 E94.46602
G1 X175.327 Y184.026 E94.47106
G1 X175.208 Y184.1 E94.47572
G1 X175.089 Y184.201 E94.48091
G1 X174.996 Y184.309 E94.48565
G1 X174.917 Y184.439 E94.49071
G1 X174.861 Y184.573 E94.49554
G1 X174.827 Y184.713 E94.50033
G1 X174.801 Y185.036 E94.51111
G1 X174.729 Y185.449 E94.52505
G1 X174.579 Y185.84 E94.53898
G1 X174.358 Y186.196 E94.55292
G1 X174.073 Y186.504 E94.56688
G1 X173.736 Y186.752 E94.58079
G1 X173.357 Y186.932 E94.59475
G1 X172.951 Y187.036 E94.60869
G1 X172.608 Y187.063 E94.62013
G1 X149.007 Y187.066 E95.4051
G1 X148.59 Y187.026 E95.41904
G1 X148.188 Y186.908 E95.43297
G1 X147.816 Y186.716 E95.44689
G1 X147.487 Y186.456 E95.46084
G1 X147.213 Y186.139 E95.47478
G1 X147.004 Y185.776 E95.48871
G1 X146.868 Y185.379 E95.50267
G1 X146.807 Y184.866 E95.51985
G1 X146.807 Y181.085 E95.64561
G1 X146.682 Y181.244 E95.65233
G1 X146.365 Y181.518 E95.66627
G1 X146.002 Y181.727 E95.6802
G1 X145.605 Y181.863 E95.69416
G1 X145.092 Y181.924 E95.71134
G1 X95.092 Y181.924 E97.37435
G1 X94.675 Y181.884 E97.38828
G1 X94.273 Y181.766 E97.40222
G1 X93.901 Y181.573 E97.41615
G1 X93.572 Y181.314 E97.43008
G1 X93.298 Y180.997 E97.44402
G1 X93.089 Y180.634 E97.45795
G1 X92.953 Y180.237 E97.47191
G1 X92.892 Y179.724 E97.48909
G1 X92.892 Y133.724 E99.01905
G1 X92.932 Y133.307 E99.03299
G1 X93.05 Y132.905 E99.04692
G1 X93.243 Y132.533 E99.06086
G1 X93.502 Y132.204 E99.07479
G1 X93.819 Y131.93 E99.08872
G1 X94.182 Y131.721 E99.10266
G1 X94.579 Y131.585 E99.11661
G1 X95.092 Y131.524 E99.1338
G1 X110.892 Y131.524 E99.65931
G1 X110.892 Y41.324 E102.65937
G1 X89.092 Y41.324 E103.38444
G1 X88.675 Y41.284 E103.39837
G1 X88.273 Y41.166 E103.41231
G1 X87.901 Y40.973 E103.42625
