;FLAVOR:Marlin
;TIME:30277
;Filament used: 21.9924m
;Layer height: 0.2
;MINX:80.735
;MINY:63.5
;MINZ:0.2
;MAXX:200.5
;MAXY:175.5
;MAXZ:64
;Generated with Cura_SteamEngine 4.6.1
M140 S50
M105
M190 S50
M104 S200
M105
M109 S200
M82 ;absolute extrusion mode
; Ender 3 Custom Start G-code
G92 E0 ; Reset Extruder
G28 ; Home all axes
G1 Z2.0 F3000 ; Move Z Axis up little to prevent scratching of Heat Bed
G1 X0.1 Y20 Z0.3 F5000.0 ; Move to start position
G1 X0.1 Y200.0 Z0.3 F1500.0 E15 ; Draw the first line
G1 X0.4 Y200.0 Z0.3 F5000.0 ; Move to side a little
G1 X0.4 Y20 Z0.3 F1500.0 E30 ; Draw the second line
G92 E0 ; Reset Extruder
G1 Z2.0 F3000 ; Move Z Axis up little to prevent scratching of Heat Bed
G1 X5 Y20 Z0.3 F5000.0 ; Move over to prevent blob squish
G92 E0
G92 E0
G1 F2700 E-5
;LAYER_COUNT:320
;LAYER:0
M107
G0 F6000 X81.681 Y90.187 Z0.2
;TYPE:SKIRT
G1 F2700 E0
G1 F1200 X82.064 Y89.882 E0.01628
G1 X82.492 Y89.644 E0.03257
G1 X82.952 Y89.478 E0.04884
G1 X83.433 Y89.389 E0.06511
G1 X83.735 Y89.374 E0.07516
G1 X129.735 Y89.374 E1.60513
G1 X129.735 Y77.374 E2.00425
G1 X129.775 Y76.886 E2.02054
G1 X129.894 Y76.411 E2.03682
G1 X130.088 Y75.962 E2.05309
G1 X130.353 Y75.55 E2.06939
G1 X130.681 Y75.187 E2.08566
G1 X131.064 Y74.882 E2.10194
G1 X131.492 Y74.644 E2.11823
G1 X131.952 Y74.478 E2.1345
G1 X132.433 Y74.389 E2.15077
G1 X132.735 Y74.374 E2.16082
G1 X140.735 Y74.374 E2.4269
G1 X141.223 Y74.414 E2.44319
G1 X141.698 Y74.533 E2.45948
G1 X142.147 Y74.727 E2.47574
G1 X142.559 Y74.992 E2.49204
G1 X142.922 Y75.32 E2.50831
G1 X143.227 Y75.703 E2.52459
G1 X143.465 Y76.131 E2.54088
G1 X143.631 Y76.591 E2.55715
G1 X143.72 Y77.072 E2.57342
G1 X143.735 Y77.374 E2.58347
G1 X143.735 Y89.374 E2.9826
G1 X152.735 Y89.374 E3.28194
G1 X153.223 Y89.414 E3.29822
G1 X153.698 Y89.533 E3.31451
G1 X154.147 Y89.727 E3.33078
G1 X154.5 Y89.954 E3.34474
G1 X154.5 Y66.524 E4.12402
G1 X154.54 Y66.036 E4.14031
G1 X154.659 Y65.561 E4.15659
G1 X154.853 Y65.112 E4.17286
G1 X155.118 Y64.7 E4.18915
G1 X155.446 Y64.337 E4.20543
G1 X155.829 Y64.032 E4.22171
G1 X156.257 Y63.794 E4.238
G1 X156.717 Y63.628 E4.25426
G1 X157.198 Y63.539 E4.27053
G1 X157.491 Y63.524 E4.28029
G1 X165.491 Y63.5 E4.54637
G1 X165.979 Y63.538 E4.56265
G1 X166.454 Y63.656 E4.57893
G1 X166.904 Y63.849 E4.59522
G1 X167.316 Y64.112 E4.61148
G1 X167.681 Y64.44 E4.6278
G1 X167.987 Y64.822 E4.64408
G1 X168.226 Y65.248 E4.66032
G1 X168.394 Y65.708 E4.67661
G1 X168.484 Y66.189 E4.69289
G1 X168.5 Y66.5 E4.70324
G1 X168.5 Y134.5 E6.96493
G1 X184.5 Y134.5 E7.4971
G1 X184.5 Y122.5 E7.89622
G1 X184.54 Y122.012 E7.9125
G1 X184.659 Y121.537 E7.92879
G1 X184.853 Y121.088 E7.94506
G1 X185.118 Y120.676 E7.96135
G1 X185.446 Y120.313 E7.97762
G1 X185.829 Y120.008 E7.99391
G1 X186.257 Y119.77 E8.0102
G1 X186.717 Y119.604 E8.02646
G1 X187.198 Y119.515 E8.04273
G1 X187.5 Y119.5 E8.05279
G1 X197.5 Y119.5 E8.38539
G1 X197.988 Y119.54 E8.40167
G1 X198.463 Y119.659 E8.41796
G1 X198.912 Y119.853 E8.43423
G1 X199.324 Y120.118 E8.45052
G1 X199.687 Y120.446 E8.46679
G1 X199.992 Y120.829 E8.48308
G1 X200.23 Y121.257 E8.49937
G1 X200.396 Y121.717 E8.51563
G1 X200.485 Y122.198 E8.5319
G1 X200.5 Y122.5 E8.54196
G1 X200.5 Y172.5 E10.20497
G1 X200.46 Y172.988 E10.22125
G1 X200.341 Y173.463 E10.23754
G1 X200.147 Y173.912 E10.25381
G1 X199.882 Y174.324 E10.2701
G1 X199.554 Y174.687 E10.28637
G1 X199.171 Y174.992 E10.30266
G1 X198.743 Y175.23 E10.31894
G1 X198.283 Y175.396 E10.33521
G1 X197.802 Y175.485 E10.35148
G1 X197.5 Y175.5 E10.36154
G1 X187.5 Y175.5 E10.69414
G1 X187.012 Y175.46 E10.71042
G1 X186.537 Y175.341 E10.72671
G1 X186.088 Y175.147 E10.74298
G1 X185.676 Y174.882 E10.75927
G1 X185.313 Y174.554 E10.77554
G1 X185.008 Y174.171 E10.79183
G1 X184.77 Y173.743 E10.80811
G1 X184.604 Y173.283 E10.82438
G1 X184.515 Y172.802 E10.84065
G1 X184.5 Y172.5 E10.85071
G1 X184.5 Y160.5 E11.24983
G1 X168.5 Y160.5 E11.78199
G1 X168.5 Y172.5 E12.18111
G1 X168.46 Y172.988 E12.1974
G1 X168.341 Y173.463 E12.21368
G1 X168.147 Y173.912 E12.22995
G1 X167.882 Y174.324 E12.24625
G1 X167.554 Y174.687 E12.26252
G1 X167.171 Y174.992 E12.2788
G1 X166.743 Y175.23 E12.29509
G1 X166.283 Y175.396 E12.31136
G1 X165.802 Y175.485 E12.32763
G1 X165.5 Y175.5 E12.33768
G1 X157.5 Y175.5 E12.60376
G1 X157.012 Y175.46 E12.62005
G1 X156.537 Y175.341 E12.63634
G1 X156.088 Y175.147 E12.6526
G1 X155.676 Y174.882 E12.6689
G1 X155.313 Y174.554 E12.68517
G1 X155.008 Y174.171 E12.70145
G1 X154.77 Y173.743 E12.71774
G1 X154.604 Y173.283 E12.73401
G1 X154.515 Y172.802 E12.75028
G1 X154.5 Y172.5 E12.76033
G1 X154.5 Y166.068 E12.97426
G1 X154.388 Y166.515 E12.98959
G1 X154.194 Y166.964 E13.00586
G1 X153.929 Y167.376 E13.02215
G1 X153.601 Y167.739 E13.03842
G1 X153.218 Y168.044 E13.05471
G1 X152.79 Y168.282 E13.071
G1 X152.33 Y168.448 E13.08726
G1 X151.849 Y168.537 E13.10353
G1 X151.547 Y168.552 E13.11359
G1 X111.547 Y168.552 E14.44399
G1 X111.059 Y168.512 E14.46028
G1 X110.584 Y168.393 E14.47656
G1 X110.135 Y168.199 E14.49283
G1 X109.723 Y167.934 E14.50913
G1 X109.36 Y167.606 E14.5254
G1 X109.055 Y167.223 E14.54168
G1 X108.817 Y166.795 E14.55797
G1 X108.651 Y166.335 E14.57424
G1 X108.562 Y165.854 E14.59051
G1 X108.547 Y165.552 E14.60056
G1 X108.547 Y132.552 E15.69815
G1 X108.587 Y132.064 E15.71443
G1 X108.706 Y131.589 E15.73072
G1 X108.9 Y131.14 E15.74699
G1 X109.165 Y130.728 E15.76328
G1 X109.493 Y130.365 E15.77955
G1 X109.876 Y130.06 E15.79584
G1 X110.304 Y129.822 E15.81213
G1 X110.764 Y129.656 E15.82839
G1 X111.245 Y129.567 E15.84466
G1 X111.547 Y129.552 E15.85472
G1 X128.547 Y129.552 E16.42014
G1 X128.547 Y128.052 E16.47003
G1 X128.587 Y127.564 E16.48632
G1 X128.706 Y127.089 E16.5026
G1 X128.9 Y126.64 E16.51887
G1 X129.165 Y126.228 E16.53516
G1 X129.493 Y125.865 E16.55144
G1 X129.876 Y125.56 E16.56772
G1 X130.304 Y125.322 E16.58401
G1 X130.764 Y125.156 E16.60027
G1 X131.245 Y125.067 E16.61654
G1 X131.547 Y125.052 E16.6266
G1 X137.547 Y125.052 E16.82616
G1 X138.035 Y125.092 E16.84245
G1 X138.51 Y125.211 E16.85873
G1 X138.959 Y125.405 E16.875
G1 X139.371 Y125.67 E16.89129
G1 X139.734 Y125.998 E16.90757
G1 X140.039 Y126.381 E16.92385
G1 X140.277 Y126.809 E16.94014
G1 X140.443 Y127.269 E16.9564
G1 X140.532 Y127.75 E16.97267
G1 X140.547 Y128.052 E16.98273
G1 X140.547 Y129.552 E17.03262
G1 X151.547 Y129.552 E17.39848
G1 X152.035 Y129.592 E17.41477
G1 X152.51 Y129.711 E17.43105
G1 X152.959 Y129.905 E17.44732
G1 X153.371 Y130.17 E17.46362
G1 X153.734 Y130.498 E17.47989
G1 X154.039 Y130.881 E17.49617
G1 X154.277 Y131.309 E17.51246
G1 X154.443 Y131.769 E17.52873
G1 X154.5 Y132.077 E17.53914
G1 X154.5 Y114.791 E18.11408
G1 X154.406 Y114.866 E18.11808
G1 X153.978 Y115.104 E18.13437
G1 X153.518 Y115.27 E18.15063
G1 X153.037 Y115.359 E18.1669
G1 X152.735 Y115.374 E18.17696
G1 X144.735 Y115.374 E18.44304
G1 X144.247 Y115.334 E18.45932
G1 X143.772 Y115.215 E18.47561
G1 X143.323 Y115.021 E18.49188
G1 X142.911 Y114.756 E18.50817
G1 X142.548 Y114.428 E18.52444
G1 X142.243 Y114.045 E18.54073
G1 X142.005 Y113.617 E18.55702
G1 X141.839 Y113.157 E18.57328
G1 X141.75 Y112.676 E18.58955
G1 X141.735 Y112.374 E18.59961
G1 X141.735 Y105.374 E18.83243
G1 X126.735 Y105.374 E19.33133
G1 X126.735 Y125.374 E19.99654
G1 X126.695 Y125.862 E20.01282
G1 X126.576 Y126.337 E20.02911
G1 X126.382 Y126.786 E20.04538
G1 X126.117 Y127.198 E20.06167
G1 X125.789 Y127.561 E20.07794
G1 X125.406 Y127.866 E20.09423
G1 X124.978 Y128.104 E20.11051
G1 X124.518 Y128.27 E20.12678
G1 X124.037 Y128.359 E20.14305
G1 X123.735 Y128.374 E20.15311
G1 X83.735 Y128.374 E21.48351
G1 X83.247 Y128.334 E21.4998
G1 X82.772 Y128.215 E21.51608
G1 X82.323 Y128.021 E21.53235
G1 X81.911 Y127.756 E21.54864
G1 X81.548 Y127.428 E21.56492
G1 X81.243 Y127.045 E21.5812
G1 X81.005 Y126.617 E21.59749
G1 X80.839 Y126.157 E21.61375
G1 X80.75 Y125.676 E21.63002
G1 X80.735 Y125.374 E21.64008
G1 X80.735 Y92.374 E22.73767
G1 X80.775 Y91.886 E22.75395
G1 X80.894 Y91.411 E22.77024
G1 X81.088 Y90.962 E22.78651
G1 X81.353 Y90.55 E22.8028
G1 X81.681 Y90.187 E22.81907
G0 F6000 X82.073 Y90.374
G1 F1200 X82.448 Y90.115 E22.83423
G1 X82.862 Y89.925 E22.84938
G1 X83.303 Y89.81 E22.86454
G1 X83.735 Y89.774 E22.87896
G1 X130.135 Y89.774 E24.42223
G1 X130.135 Y77.374 E24.83465
G1 X130.175 Y76.92 E24.84981
G1 X130.293 Y76.48 E24.86496
G1 X130.487 Y76.068 E24.88011
G1 X130.75 Y75.695 E24.89529
G1 X131.073 Y75.374 E24.91043
G1 X131.448 Y75.115 E24.92559
G1 X131.862 Y74.925 E24.94074
G1 X132.303 Y74.81 E24.9559
G1 X132.735 Y74.774 E24.97032
G1 X140.735 Y74.774 E25.2364
G1 X141.189 Y74.814 E25.25156
G1 X141.629 Y74.932 E25.26671
G1 X142.041 Y75.126 E25.28186
G1 X142.414 Y75.389 E25.29704
G1 X142.735 Y75.712 E25.31218
G1 X142.994 Y76.087 E25.32734
G1 X143.184 Y76.501 E25.34249
G1 X143.299 Y76.942 E25.35765
G1 X143.335 Y77.374 E25.37207
G1 X143.335 Y89.774 E25.78449
G1 X152.735 Y89.774 E26.09714
G1 X153.189 Y89.814 E26.1123
G1 X153.629 Y89.932 E26.12745
G1 X154.041 Y90.126 E26.1426
G1 X154.414 Y90.389 E26.15778
G1 X154.735 Y90.712 E26.17292
G1 X154.9 Y90.951 E26.18258
G1 X154.9 Y66.524 E26.99503
G1 X154.94 Y66.07 E27.01018
G1 X155.058 Y65.63 E27.02534
G1 X155.252 Y65.218 E27.04048
G1 X155.515 Y64.845 E27.05566
G1 X155.838 Y64.524 E27.07081
G1 X156.213 Y64.265 E27.08597
G1 X156.627 Y64.075 E27.10112
G1 X157.068 Y63.96 E27.11628
G1 X157.492 Y63.924 E27.13043
G1 X165.492 Y63.9 E27.39651
G1 X165.946 Y63.939 E27.41167
G1 X166.386 Y64.056 E27.42681
G1 X166.8 Y64.248 E27.44199
G1 X167.173 Y64.51 E27.45715
G1 X167.495 Y64.832 E27.47229
G1 X167.755 Y65.206 E27.48744
G1 X167.946 Y65.619 E27.50258
G1 X168.062 Y66.06 E27.51775
G1 X168.1 Y66.5 E27.53243
G1 X168.1 Y134.9 E29.80743
G1 X184.9 Y134.9 E30.3662
G1 X184.9 Y122.5 E30.77862
G1 X184.94 Y122.046 E30.79378
G1 X185.058 Y121.606 E30.80893
G1 X185.252 Y121.194 E30.82408
G1 X185.515 Y120.821 E30.83926
G1 X185.838 Y120.5 E30.85441
G1 X186.213 Y120.241 E30.86956
G1 X186.627 Y120.051 E30.88471
G1 X187.068 Y119.936 E30.89987
G1 X187.5 Y119.9 E30.91429
G1 X197.5 Y119.9 E31.24689
G1 X197.954 Y119.94 E31.26205
G1 X198.394 Y120.058 E31.2772
G1 X198.806 Y120.252 E31.29235
G1 X199.179 Y120.515 E31.30753
G1 X199.5 Y120.838 E31.32267
G1 X199.759 Y121.213 E31.33783
G1 X199.949 Y121.627 E31.35298
G1 X200.064 Y122.068 E31.36814
G1 X200.1 Y122.5 E31.38256
G1 X200.1 Y172.5 E33.04557
G1 X200.06 Y172.954 E33.06073
G1 X199.942 Y173.394 E33.07588
G1 X199.748 Y173.806 E33.09102
G1 X199.485 Y174.179 E33.1062
G1 X199.162 Y174.5 E33.12135
G1 X198.787 Y174.759 E33.13651
G1 X198.373 Y174.949 E33.15166
G1 X197.932 Y175.064 E33.16682
G1 X197.5 Y175.1 E33.18123
G1 X187.5 Y175.1 E33.51384
G1 X187.046 Y175.06 E33.52899
G1 X186.606 Y174.942 E33.54415
G1 X186.194 Y174.748 E33.55929
G1 X185.821 Y174.485 E33.57447
G1 X185.5 Y174.162 E33.58962
G1 X185.241 Y173.787 E33.60478
G1 X185.051 Y173.373 E33.61993
G1 X184.936 Y172.932 E33.63508
G1 X184.9 Y172.5 E33.6495
G1 X184.9 Y160.1 E34.06193
G1 X168.1 Y160.1 E34.6207
G1 X168.1 Y172.5 E35.03312
G1 X168.06 Y172.954 E35.04828
G1 X167.942 Y173.394 E35.06343
G1 X167.748 Y173.806 E35.07858
G1 X167.485 Y174.179 E35.09376
G1 X167.162 Y174.5 E35.10891
G1 X166.787 Y174.759 E35.12406
G1 X166.373 Y174.949 E35.13922
G1 X165.932 Y175.064 E35.15437
G1 X165.5 Y175.1 E35.16879
G1 X157.5 Y175.1 E35.43487
G1 X157.046 Y175.06 E35.45003
G1 X156.606 Y174.942 E35.46518
G1 X156.194 Y174.748 E35.48033
G1 X155.821 Y174.485 E35.49551
G1 X155.5 Y174.162 E35.51066
G1 X155.241 Y173.787 E35.52581
G1 X155.051 Y173.373 E35.54096
G1 X154.936 Y172.932 E35.55612
G1 X154.9 Y172.5 E35.57054
G1 X154.9 Y113.798 E37.52298
G1 X154.72 Y114.053 E37.53336
G1 X154.397 Y114.374 E37.5485
G1 X154.022 Y114.633 E37.56366
G1 X153.608 Y114.823 E37.57881
G1 X153.167 Y114.938 E37.59397
G1 X152.735 Y114.974 E37.60839
G1 X144.735 Y114.974 E37.87447
G1 X144.281 Y114.934 E37.88963
G1 X143.841 Y114.816 E37.90478
G1 X143.429 Y114.622 E37.91993
G1 X143.056 Y114.359 E37.93511
G1 X142.735 Y114.036 E37.95025
G1 X142.476 Y113.661 E37.96541
G1 X142.286 Y113.247 E37.98056
G1 X142.171 Y112.806 E37.99572
G1 X142.135 Y112.374 E38.01014
G1 X142.135 Y104.974 E38.25626
G1 X126.335 Y104.974 E38.78177
G1 X126.335 Y125.374 E39.46028
G1 X126.295 Y125.828 E39.47544
G1 X126.177 Y126.268 E39.49059
G1 X125.983 Y126.68 E39.50574
G1 X125.72 Y127.053 E39.52092
G1 X125.397 Y127.374 E39.53606
G1 X125.022 Y127.633 E39.55122
G1 X124.608 Y127.823 E39.56637
G1 X124.167 Y127.938 E39.58153
G1 X123.735 Y127.974 E39.59595
G1 X83.735 Y127.974 E40.92635
G1 X83.281 Y127.934 E40.94151
G1 X82.841 Y127.816 E40.95666
G1 X82.429 Y127.622 E40.97181
G1 X82.056 Y127.359 E40.98699
G1 X81.735 Y127.036 E41.00214
G1 X81.476 Y126.661 E41.01729
G1 X81.286 Y126.247 E41.03244
G1 X81.171 Y125.806 E41.0476
G1 X81.135 Y125.374 E41.06202
G1 X81.135 Y92.374 E42.1596
G1 X81.175 Y91.92 E42.17476
G1 X81.293 Y91.48 E42.18992
G1 X81.487 Y91.068 E42.20506
G1 X81.75 Y90.695 E42.22024
G1 X82.073 Y90.374 E42.23539
G0 F6000 X82.145 Y90.854
G1 F1200 X82.462 Y90.58 E42.24932
G1 X82.825 Y90.371 E42.26326
G1 X83.222 Y90.235 E42.27721
G1 X83.735 Y90.174 E42.2944
G1 X130.535 Y90.174 E43.85097
G1 X130.535 Y77.374 E44.2767
G1 X130.575 Y76.957 E44.29063
G1 X130.693 Y76.555 E44.30457
G1 X130.886 Y76.183 E44.31851
G1 X131.145 Y75.854 E44.33243
G1 X131.462 Y75.58 E44.34637
G1 X131.825 Y75.371 E44.3603
G1 X132.222 Y75.235 E44.37426
G1 X132.735 Y75.174 E44.39144
G1 X140.735 Y75.174 E44.65752
G1 X141.152 Y75.214 E44.67145
G1 X141.554 Y75.332 E44.68539
G1 X141.926 Y75.525 E44.69933
G1 X142.255 Y75.784 E44.71325
G1 X142.529 Y76.101 E44.72719
G1 X142.738 Y76.464 E44.74112
G1 X142.874 Y76.861 E44.75508
G1 X142.935 Y77.374 E44.77226
G1 X142.935 Y90.174 E45.19799
G1 X152.735 Y90.174 E45.52394
G1 X153.152 Y90.214 E45.53787
G1 X153.554 Y90.332 E45.55181
G1 X153.926 Y90.525 E45.56575
G1 X154.255 Y90.784 E45.57967
G1 X154.529 Y91.101 E45.59361
G1 X154.738 Y91.464 E45.60754
G1 X154.874 Y91.861 E45.6215
G1 X154.935 Y92.374 E45.63868
G1 X154.935 Y112.374 E46.30389
G1 X154.895 Y112.791 E46.31782
G1 X154.777 Y113.193 E46.33175
G1 X154.584 Y113.565 E46.34569
G1 X154.325 Y113.894 E46.35962
G1 X154.008 Y114.168 E46.37355
G1 X153.645 Y114.377 E46.38749
G1 X153.248 Y114.513 E46.40144
G1 X152.735 Y114.574 E46.41863
G1 X144.735 Y114.574 E46.68471
G1 X144.318 Y114.534 E46.69864
G1 X143.916 Y114.416 E46.71258
G1 X143.544 Y114.223 E46.72651
G1 X143.215 Y113.964 E46.74044
G1 X142.941 Y113.647 E46.75438
G1 X142.732 Y113.284 E46.76831
G1 X142.596 Y112.887 E46.78227
G1 X142.535 Y112.374 E46.79945
G1 X142.535 Y104.574 E47.05888
G1 X125.935 Y104.574 E47.611
G1 X125.935 Y125.374 E48.30281
G1 X125.895 Y125.791 E48.31674
G1 X125.777 Y126.193 E48.33067
G1 X125.584 Y126.565 E48.34461
G1 X125.325 Y126.894 E48.35854
G1 X125.008 Y127.168 E48.37248
G1 X124.645 Y127.377 E48.38641
G1 X124.248 Y127.513 E48.40037
G1 X123.735 Y127.574 E48.41755
G1 X83.735 Y127.574 E49.74795
G1 X83.318 Y127.534 E49.76189
G1 X82.916 Y127.416 E49.77582
G1 X82.544 Y127.223 E49.78976
G1 X82.215 Y126.964 E49.80369
G1 X81.941 Y126.647 E49.81762
G1 X81.732 Y126.284 E49.83155
G1 X81.596 Y125.887 E49.84551
G1 X81.535 Y125.374 E49.86269
G1 X81.535 Y92.374 E50.96028
G1 X81.575 Y91.957 E50.97421
G1 X81.693 Y91.555 E50.98815
G1 X81.886 Y91.183 E51.00209
G1 X82.145 Y90.854 E51.01601
G0 F6000 X82.538 Y91.029
G1 F1200 X82.847 Y90.809 E51.02863
G1 X83.194 Y90.657 E51.04123
G1 X83.735 Y90.574 E51.05943
G1 X130.935 Y90.574 E52.62931
G1 X130.935 Y77.374 E53.06834
G1 X130.975 Y76.997 E53.08095
G1 X131.093 Y76.637 E53.09355
G1 X131.283 Y76.31 E53.10613
G1 X131.538 Y76.029 E53.11875
G1 X131.847 Y75.809 E53.13137
G1 X132.194 Y75.657 E53.14397
G1 X132.735 Y75.574 E53.16217
G1 X140.735 Y75.574 E53.42826
G1 X141.112 Y75.614 E53.44087
G1 X141.472 Y75.732 E53.45347
G1 X141.799 Y75.922 E53.46604
G1 X142.08 Y76.177 E53.47867
G1 X142.3 Y76.486 E53.49128
G1 X142.452 Y76.833 E53.50388
G1 X142.535 Y77.374 E53.52209
G1 X142.535 Y90.574 E53.96112
G1 X152.735 Y90.574 E54.30037
G1 X153.112 Y90.614 E54.31298
G1 X153.472 Y90.732 E54.32558
G1 X153.799 Y90.922 E54.33816
G1 X154.08 Y91.177 E54.35078
G1 X154.3 Y91.486 E54.3634
